;FLAVOR:Marlin
;TIME:214
;Filament used: 0.105796m
;Layer height: 0.2
;MINX:99.315
;MINY:89.012
;MINZ:0.2
;MAXX:130.685
;MAXY:120.987
;MAXZ:3.2
;Generated with Cura_SteamEngine master
M140 S50
M105
M190 S50
M104 S200
M105
M109 S200
M82 ;absolute extrusion mode
;posicionamiento absoluto

G90

;establecer el extrusor en modo absoluto

M82

;Apaga el fan de capa 

M107

;lleva el eje al inicio

G28

;Se mueve a esa posición

G1 X5 Y5 Z15 F3000

G1 Z15.0 F9000

;El eje E esta en cero

G92 E0

;extruye 10mm

G1 F200 E10

G92 E0

;Guardad esa velocidad

G1 F9000

;imprime en el LCD

M117 Imprimiendo...
G92 E0
G92 E0
G1 F2700 E-5
;LAYER_COUNT:16
;LAYER:0
M107
G0 F6000 X103.499 Y94.214 Z0.2
;TYPE:SKIRT
G1 F2700 E0
G1 F1200 X103.798 Y93.896 E0.01452
G1 X103.887 Y93.805 E0.01875
G1 X104.269 Y93.432 E0.03651
G1 X104.574 Y93.149 E0.05035
G1 X104.934 Y92.829 E0.06637
G1 X105.347 Y92.489 E0.08416
G1 X105.55 Y92.33 E0.09274
G1 X106.012 Y91.987 E0.11187
G1 X106.36 Y91.746 E0.12595
G1 X106.538 Y91.627 E0.13308
G1 X107.164 Y91.239 E0.15757
G1 X107.468 Y91.064 E0.16924
G1 X108.064 Y90.745 E0.19172
G1 X108.35 Y90.603 E0.20234
G1 X108.968 Y90.319 E0.22496
G1 X109.236 Y90.206 E0.23464
G1 X109.87 Y89.962 E0.25723
G1 X110.178 Y89.854 E0.26809
G1 X110.874 Y89.635 E0.29236
G1 X111.262 Y89.53 E0.30572
G1 X111.499 Y89.47 E0.31386
G1 X111.927 Y89.371 E0.32847
G1 X112.107 Y89.333 E0.33459
G1 X112.88 Y89.199 E0.36068
G1 X113.338 Y89.136 E0.37606
G1 X114.071 Y89.06 E0.40057
G1 X114.329 Y89.042 E0.40917
G1 X114.829 Y89.018 E0.42582
G1 X115.036 Y89.013 E0.4327
G1 X115.484 Y89.012 E0.4476
G1 X115.665 Y89.015 E0.45363
G1 X116.118 Y89.031 E0.4687
G1 X116.36 Y89.045 E0.47676
G1 X117.097 Y89.113 E0.50138
G1 X117.447 Y89.157 E0.51311
G1 X117.98 Y89.237 E0.53104
G1 X118.253 Y89.285 E0.54026
G1 X118.923 Y89.425 E0.56303
G1 X119.139 Y89.477 E0.57041
G1 X119.624 Y89.605 E0.5871
G1 X119.883 Y89.68 E0.59607
G1 X120.451 Y89.861 E0.61589
G1 X120.597 Y89.912 E0.62104
G1 X121.086 Y90.094 E0.63839
G1 X121.759 Y90.373 E0.66262
G1 X122.047 Y90.504 E0.67315
G1 X122.62 Y90.785 E0.69437
G1 X122.918 Y90.942 E0.70558
G1 X123.377 Y91.198 E0.72306
G1 X123.735 Y91.414 E0.73696
G1 X123.915 Y91.527 E0.74403
G1 X124.421 Y91.865 E0.76427
G1 X124.599 Y91.991 E0.77152
G1 X124.834 Y92.162 E0.78119
G1 X124.981 Y92.272 E0.7873
G1 X125.485 Y92.672 E0.8087
G1 X125.69 Y92.845 E0.81762
G1 X126.114 Y93.222 E0.83649
G1 X126.349 Y93.442 E0.8472
G1 X126.78 Y93.869 E0.86738
G1 X126.956 Y94.053 E0.87584
G1 X127.229 Y94.348 E0.88921
G1 X127.309 Y94.438 E0.89322
G1 X127.626 Y94.811 E0.9095
G1 X127.773 Y94.992 E0.91725
G1 X128.04 Y95.335 E0.93171
G1 X128.168 Y95.506 E0.93882
G1 X128.473 Y95.935 E0.95632
G1 X128.611 Y96.139 E0.96452
G1 X128.935 Y96.647 E0.98456
G1 X129.119 Y96.954 E0.99646
G1 X129.567 Y97.778 E1.02765
G1 X129.942 Y98.638 E1.05886
G1 X130.243 Y99.526 E1.09005
G1 X130.467 Y100.437 E1.12125
G1 X130.613 Y101.363 E1.15243
G1 X130.684 Y102.704 E1.19709
G1 X130.661 Y105.309 E1.28374
G1 X130.675 Y106.008 E1.30699
G1 X130.685 Y107.28 E1.3493
G1 X130.652 Y108.217 E1.38048
G1 X130.54 Y109.148 E1.41167
G1 X130.348 Y110.066 E1.44287
G1 X130.08 Y110.965 E1.47407
G1 X129.735 Y111.837 E1.50526
G1 X129.282 Y112.741 E1.53889
G1 X129.091 Y113.082 E1.55189
G1 X128.625 Y113.842 E1.58154
G1 X128.496 Y114.034 E1.58923
G1 X128.19 Y114.466 E1.60684
G1 X128.094 Y114.595 E1.61219
G1 X127.851 Y114.909 E1.62539
G1 X127.677 Y115.126 E1.63464
G1 X127.218 Y115.662 E1.65812
G1 X127.008 Y115.892 E1.66847
G1 X126.536 Y116.378 E1.69101
G1 X126.317 Y116.59 E1.70115
G1 X125.927 Y116.95 E1.7188
G1 X125.591 Y117.24 E1.73356
G1 X125.409 Y117.391 E1.74143
G1 X125.027 Y117.693 E1.75762
G1 X124.928 Y117.768 E1.76175
G1 X124.599 Y118.008 E1.7753
G1 X124.365 Y118.172 E1.7848
G1 X123.97 Y118.436 E1.8006
G1 X123.829 Y118.526 E1.80617
G1 X123.467 Y118.748 E1.82029
G1 X123.25 Y118.875 E1.82865
G1 X122.782 Y119.133 E1.84643
G1 X122.351 Y119.351 E1.86249
G1 X122.094 Y119.474 E1.87197
G1 X121.599 Y119.696 E1.89001
G1 X121.351 Y119.8 E1.89896
G1 X120.692 Y120.052 E1.92242
G1 X120.397 Y120.154 E1.93281
G1 X119.802 Y120.341 E1.95355
G1 X119.481 Y120.432 E1.96465
G1 X118.751 Y120.612 E1.98965
G1 X118.438 Y120.678 E2.00029
G1 X117.77 Y120.798 E2.02287
G1 X117.539 Y120.832 E2.03063
G1 X117.001 Y120.897 E2.04866
G1 X116.651 Y120.931 E2.06035
G1 X115.868 Y120.979 E2.08644
G1 X115.555 Y120.987 E2.09686
G1 X114.803 Y120.981 E2.12187
G1 X114.476 Y120.967 E2.13276
G1 X113.964 Y120.933 E2.14982
G1 X113.73 Y120.912 E2.15764
G1 X113.231 Y120.856 E2.17434
G1 X112.795 Y120.791 E2.189
G1 X112.544 Y120.749 E2.19746
G1 X112.121 Y120.671 E2.21177
G1 X111.45 Y120.519 E2.23465
G1 X111.203 Y120.455 E2.24314
G1 X110.671 Y120.303 E2.26154
G1 X110.368 Y120.208 E2.2721
G1 X109.86 Y120.035 E2.28995
G1 X109.735 Y119.989 E2.29438
G1 X109.335 Y119.833 E2.30866
G1 X109.105 Y119.738 E2.31694
G1 X108.578 Y119.504 E2.33612
G1 X108.269 Y119.357 E2.3475
G1 X107.583 Y119.001 E2.37321
G1 X107.291 Y118.836 E2.38436
G1 X106.76 Y118.515 E2.405
G1 X106.57 Y118.393 E2.41251
G1 X106.176 Y118.128 E2.4283
G1 X106.01 Y118.011 E2.43506
G1 X105.715 Y117.796 E2.4472
G1 X105.584 Y117.697 E2.45266
G1 X105.178 Y117.375 E2.46989
G1 X104.963 Y117.196 E2.4792
G1 X104.54 Y116.825 E2.49791
G1 X104.462 Y116.753 E2.50144
G1 X104.185 Y116.488 E2.51419
G1 X103.89 Y116.196 E2.528
G1 X103.271 Y115.531 E2.55821
G1 X103.063 Y115.288 E2.56885
G1 X102.504 Y114.578 E2.59891
G1 X102.181 Y114.131 E2.61725
G1 X101.612 Y113.258 E2.65191
G1 X101.437 Y112.96 E2.6634
G1 X101.158 Y112.456 E2.68257
G1 X101.021 Y112.186 E2.69264
G1 X100.903 Y111.946 E2.70153
G1 X100.689 Y111.486 E2.7184
G1 X100.601 Y111.284 E2.72573
G1 X100.447 Y110.91 E2.73919
G1 X100.363 Y110.696 E2.74683
G1 X100.151 Y110.109 E2.76759
G1 X100.046 Y109.776 E2.7792
G1 X99.939 Y109.42 E2.79157
G1 X99.811 Y108.96 E2.80745
G1 X99.778 Y108.83 E2.81191
G1 X99.669 Y108.356 E2.82809
G1 X99.623 Y108.134 E2.83563
G1 X99.478 Y107.257 E2.86519
G1 X99.408 Y106.693 E2.88409
G1 X99.334 Y105.802 E2.91383
G1 X99.319 Y105.372 E2.92814
G1 X99.315 Y105.122 E2.93646
G1 X99.319 Y104.611 E2.95345
G1 X99.326 Y104.381 E2.96111
G1 X99.351 Y103.909 E2.97683
G1 X99.366 Y103.705 E2.98363
G1 X99.465 Y102.833 E3.01282
G1 X99.547 Y102.302 E3.03069
G1 X99.706 Y101.48 E3.05854
G1 X99.766 Y101.223 E3.06732
G1 X99.92 Y100.636 E3.0875
G1 X99.963 Y100.489 E3.09259
G1 X100.082 Y100.109 E3.10584
G1 X100.186 Y99.796 E3.11681
G1 X100.298 Y99.474 E3.12815
G1 X100.338 Y99.365 E3.13201
G1 X100.565 Y98.796 E3.15238
G1 X100.647 Y98.606 E3.15927
G1 X100.823 Y98.221 E3.17335
G1 X100.932 Y97.993 E3.18175
G1 X101.206 Y97.458 E3.20174
G1 X101.363 Y97.171 E3.21262
G1 X101.737 Y96.537 E3.23711
G1 X101.904 Y96.275 E3.24744
G1 X102.263 Y95.748 E3.26865
G1 X102.518 Y95.401 E3.28297
G1 X102.739 Y95.113 E3.29505
G1 X103.031 Y94.749 E3.31057
G1 X103.359 Y94.369 E3.32726
G1 X103.499 Y94.214 E3.33421
G0 F6000 X103.796 Y94.482
G1 F1200 X104.084 Y94.175 E3.34821
G1 X104.173 Y94.084 E3.35244
G1 X104.541 Y93.726 E3.36952
G1 X104.846 Y93.443 E3.38336
G1 X105.196 Y93.132 E3.39893
G1 X105.594 Y92.804 E3.41609
G1 X105.797 Y92.645 E3.42466
G1 X106.242 Y92.315 E3.44309
G1 X106.583 Y92.079 E3.45688
G1 X106.761 Y91.96 E3.464
G1 X107.364 Y91.585 E3.48762
G1 X107.668 Y91.41 E3.49929
G1 X108.242 Y91.103 E3.52094
G1 X108.528 Y90.961 E3.53156
G1 X109.124 Y90.688 E3.55336
G1 X109.392 Y90.575 E3.56304
G1 X110.002 Y90.339 E3.58479
G1 X110.31 Y90.231 E3.59565
G1 X110.981 Y90.021 E3.61903
G1 X111.361 Y89.918 E3.63212
G1 X111.598 Y89.858 E3.64026
G1 X112.009 Y89.763 E3.65429
G1 X112.189 Y89.725 E3.66041
G1 X112.935 Y89.595 E3.68559
G1 X113.393 Y89.532 E3.70097
G1 X114.099 Y89.459 E3.72457
G1 X114.357 Y89.441 E3.73318
G1 X114.839 Y89.418 E3.74923
G1 X115.046 Y89.413 E3.75611
G1 X115.478 Y89.411 E3.77048
G1 X115.659 Y89.414 E3.7765
G1 X116.095 Y89.431 E3.79102
G1 X116.337 Y89.445 E3.79908
G1 X117.047 Y89.51 E3.82279
G1 X117.397 Y89.554 E3.83452
G1 X117.911 Y89.631 E3.85181
G1 X118.184 Y89.679 E3.86103
G1 X118.829 Y89.813 E3.88294
G1 X119.045 Y89.865 E3.89033
G1 X119.512 Y89.989 E3.9064
G1 X119.771 Y90.064 E3.91537
G1 X120.319 Y90.239 E3.9345
G1 X120.709 Y90.379 E3.94828
G1 X120.945 Y90.468 E3.95667
G1 X121.594 Y90.737 E3.98004
G1 X121.882 Y90.868 E3.99056
G1 X122.434 Y91.139 E4.01102
G1 X122.732 Y91.296 E4.02222
G1 X123.174 Y91.542 E4.03904
G1 X123.522 Y91.752 E4.05256
G1 X123.702 Y91.865 E4.05963
G1 X124.19 Y92.191 E4.07915
G1 X124.368 Y92.317 E4.0864
G1 X124.595 Y92.482 E4.09574
G1 X124.742 Y92.592 E4.10184
G1 X125.227 Y92.978 E4.12246
G1 X125.432 Y93.151 E4.13138
G1 X125.84 Y93.514 E4.14955
G1 X126.075 Y93.734 E4.16025
G1 X126.491 Y94.145 E4.1797
G1 X126.667 Y94.329 E4.18817
G1 X126.93 Y94.614 E4.20107
G1 X127.01 Y94.704 E4.20507
G1 X127.315 Y95.063 E4.22074
G1 X127.462 Y95.244 E4.2285
G1 X127.72 Y95.575 E4.24246
G1 X127.848 Y95.746 E4.24956
G1 X128.142 Y96.159 E4.26642
G1 X128.28 Y96.363 E4.27461
G1 X128.592 Y96.853 E4.29393
G1 X128.776 Y97.16 E4.30584
G1 X129.215 Y97.969 E4.33645
G1 X129.581 Y98.814 E4.36708
G1 X129.873 Y99.687 E4.3977
G1 X130.088 Y100.582 E4.42831
G1 X130.225 Y101.492 E4.45892
G1 X130.284 Y102.701 E4.49918
G1 X130.261 Y105.314 E4.58609
G1 X130.275 Y106.011 E4.60928
G1 X130.285 Y107.283 E4.65159
G1 X130.252 Y108.203 E4.68221
G1 X130.139 Y109.116 E4.7128
G1 X129.948 Y110.017 E4.74344
G1 X129.679 Y110.898 E4.77408
G1 X129.335 Y111.752 E4.8047
G1 X128.933 Y112.546 E4.8343
G1 X128.742 Y112.887 E4.8473
G1 X128.293 Y113.619 E4.87586
G1 X128.164 Y113.811 E4.88355
G1 X127.869 Y114.227 E4.90051
G1 X127.773 Y114.356 E4.90586
G1 X127.539 Y114.659 E4.9186
G1 X127.365 Y114.876 E4.92785
G1 X126.923 Y115.392 E4.95045
G1 X126.713 Y115.622 E4.9608
G1 X126.258 Y116.091 E4.98254
G1 X126.039 Y116.303 E4.99268
G1 X125.663 Y116.649 E5.00967
G1 X125.335 Y116.932 E5.02408
G1 X125.153 Y117.083 E5.03194
G1 X124.786 Y117.374 E5.04752
G1 X124.687 Y117.449 E5.05165
G1 X124.37 Y117.68 E5.0647
G1 X124.136 Y117.844 E5.0742
G1 X123.755 Y118.099 E5.08945
G1 X123.614 Y118.189 E5.09502
G1 X123.265 Y118.402 E5.10861
G1 X123.048 Y118.529 E5.11698
G1 X122.597 Y118.779 E5.13413
G1 X122.505 Y118.827 E5.13758
G1 X122.178 Y118.99 E5.14973
G1 X121.921 Y119.113 E5.15921
G1 X121.444 Y119.327 E5.1766
G1 X121.196 Y119.431 E5.18554
G1 X120.561 Y119.674 E5.20815
G1 X120.266 Y119.776 E5.21854
G1 X119.693 Y119.956 E5.23851
G1 X119.372 Y120.047 E5.24961
G1 X118.668 Y120.221 E5.27373
G1 X118.355 Y120.287 E5.28437
G1 X117.712 Y120.402 E5.30609
G1 X117.481 Y120.436 E5.31386
G1 X116.962 Y120.499 E5.33125
G1 X116.612 Y120.533 E5.34295
G1 X115.858 Y120.58 E5.36807
G1 X115.545 Y120.588 E5.37849
G1 X114.821 Y120.581 E5.40257
G1 X114.494 Y120.567 E5.41345
G1 X114 Y120.535 E5.42992
G1 X113.766 Y120.514 E5.43773
G1 X113.285 Y120.459 E5.45383
G1 X112.861 Y120.397 E5.46809
G1 X112.61 Y120.355 E5.47655
G1 X112.197 Y120.278 E5.49052
G1 X111.55 Y120.132 E5.51258
G1 X111.303 Y120.068 E5.52107
G1 X110.791 Y119.922 E5.53878
G1 X110.488 Y119.827 E5.54934
G1 X109.998 Y119.66 E5.56656
G1 X109.873 Y119.614 E5.57099
G1 X109.487 Y119.463 E5.58477
G1 X109.257 Y119.368 E5.59305
G1 X108.75 Y119.143 E5.6115
G1 X108.441 Y118.996 E5.62288
G1 X107.78 Y118.653 E5.64765
G1 X107.488 Y118.488 E5.65881
G1 X106.976 Y118.179 E5.6787
G1 X106.786 Y118.057 E5.68621
G1 X106.406 Y117.801 E5.70144
G1 X106.24 Y117.684 E5.7082
G1 X105.956 Y117.477 E5.71989
G1 X105.825 Y117.378 E5.72535
G1 X105.434 Y117.067 E5.74197
G1 X105.219 Y116.888 E5.75127
G1 X104.811 Y116.531 E5.7693
G1 X104.466 Y116.204 E5.78511
G1 X104.171 Y115.912 E5.79892
G1 X103.575 Y115.271 E5.82803
G1 X103.367 Y115.028 E5.83867
G1 X102.828 Y114.343 E5.86766
G1 X102.505 Y113.896 E5.886
G1 X101.957 Y113.056 E5.91936
G1 X101.782 Y112.758 E5.93085
G1 X101.512 Y112.27 E5.9494
G1 X101.38 Y112.01 E5.9591
G1 X101.262 Y111.77 E5.968
G1 X101.056 Y111.327 E5.98425
G1 X100.968 Y111.125 E5.99158
G1 X100.819 Y110.764 E6.00456
G1 X100.735 Y110.55 E6.01221
G1 X100.531 Y109.984 E6.03222
G1 X100.429 Y109.661 E6.04349
G1 X100.322 Y109.305 E6.05585
G1 X100.199 Y108.862 E6.07114
G1 X100.166 Y108.732 E6.0756
G1 X100.06 Y108.275 E6.09121
G1 X100.014 Y108.053 E6.09875
G1 X99.875 Y107.208 E6.12723
G1 X99.805 Y106.644 E6.14613
G1 X99.733 Y105.785 E6.1748
G1 X99.719 Y105.366 E6.18875
G1 X99.715 Y105.116 E6.19706
G1 X99.719 Y104.624 E6.21343
G1 X99.726 Y104.394 E6.22108
G1 X99.75 Y103.939 E6.23624
G1 X99.765 Y103.735 E6.24304
G1 X99.86 Y102.894 E6.27119
G1 X99.942 Y102.363 E6.28906
G1 X100.096 Y101.571 E6.31589
G1 X100.156 Y101.314 E6.32467
G1 X100.304 Y100.748 E6.34413
G1 X100.347 Y100.601 E6.34922
G1 X100.462 Y100.235 E6.36198
G1 X100.566 Y99.922 E6.37295
G1 X100.714 Y99.503 E6.38773
G1 X100.933 Y98.955 E6.40736
G1 X101.015 Y98.765 E6.41425
G1 X101.184 Y98.393 E6.42784
G1 X101.293 Y98.165 E6.43624
G1 X101.557 Y97.65 E6.45549
G1 X101.714 Y97.363 E6.46637
G1 X102.074 Y96.752 E6.48996
G1 X102.241 Y96.49 E6.50029
G1 X102.587 Y95.982 E6.52073
G1 X102.836 Y95.645 E6.53467
G1 X103.057 Y95.357 E6.54674
G1 X103.34 Y95.004 E6.56179
G1 X103.656 Y94.637 E6.5779
G1 X103.796 Y94.482 E6.58485
G0 F6000 X104.093 Y94.75
G1 F1200 X104.37 Y94.455 E6.59831
G1 X104.459 Y94.364 E6.60254
G1 X104.813 Y94.019 E6.61898
G1 X105.118 Y93.736 E6.63282
G1 X105.458 Y93.434 E6.64794
G1 X105.84 Y93.119 E6.66441
G1 X106.043 Y92.96 E6.67299
G1 X106.472 Y92.642 E6.69075
G1 X106.805 Y92.411 E6.70423
G1 X106.983 Y92.292 E6.71135
G1 X107.563 Y91.932 E6.73406
G1 X107.867 Y91.757 E6.74572
G1 X108.42 Y91.461 E6.76658
G1 X108.706 Y91.319 E6.7772
G1 X109.279 Y91.056 E6.79817
G1 X109.547 Y90.943 E6.80785
G1 X110.135 Y90.717 E6.8288
G1 X110.443 Y90.609 E6.83966
G1 X111.088 Y90.406 E6.86215
G1 X111.459 Y90.306 E6.87493
G1 X111.696 Y90.246 E6.88306
G1 X112.092 Y90.154 E6.89658
G1 X112.272 Y90.116 E6.9027
G1 X112.989 Y89.991 E6.9269
G1 X113.447 Y89.928 E6.94228
G1 X114.127 Y89.858 E6.96502
G1 X114.385 Y89.84 E6.97362
G1 X114.849 Y89.818 E6.98907
G1 X115.056 Y89.813 E6.99596
G1 X115.471 Y89.811 E7.00976
G1 X115.652 Y89.814 E7.01578
G1 X116.072 Y89.83 E7.02976
G1 X116.314 Y89.844 E7.03782
G1 X116.997 Y89.907 E7.06064
G1 X117.347 Y89.951 E7.07237
G1 X117.841 Y90.025 E7.08898
G1 X118.114 Y90.073 E7.0982
G1 X118.735 Y90.202 E7.1193
G1 X118.951 Y90.254 E7.12669
G1 X119.401 Y90.374 E7.14218
G1 X119.66 Y90.449 E7.15114
G1 X120.187 Y90.617 E7.16954
G1 X120.568 Y90.753 E7.183
G1 X120.804 Y90.842 E7.19139
G1 X121.428 Y91.101 E7.21386
G1 X121.716 Y91.232 E7.22438
G1 X122.247 Y91.493 E7.24406
G1 X122.545 Y91.65 E7.25526
G1 X122.971 Y91.887 E7.27148
G1 X123.309 Y92.091 E7.28461
G1 X123.489 Y92.204 E7.29168
G1 X123.959 Y92.518 E7.31048
G1 X124.355 Y92.802 E7.32668
G1 X124.502 Y92.912 E7.33279
G1 X124.969 Y93.284 E7.35265
G1 X125.174 Y93.457 E7.36157
G1 X125.567 Y93.806 E7.37905
G1 X125.802 Y94.026 E7.38976
G1 X126.202 Y94.422 E7.40848
G1 X126.378 Y94.606 E7.41695
G1 X126.631 Y94.879 E7.42933
G1 X126.711 Y94.969 E7.43333
G1 X127.005 Y95.316 E7.44846
G1 X127.152 Y95.497 E7.45622
G1 X127.4 Y95.815 E7.46963
G1 X127.528 Y95.986 E7.47673
G1 X127.81 Y96.383 E7.49293
G1 X127.948 Y96.587 E7.50112
G1 X128.249 Y97.058 E7.51971
G1 X128.433 Y97.365 E7.53162
G1 X128.862 Y98.16 E7.56166
G1 X129.22 Y98.989 E7.5917
G1 X129.503 Y99.847 E7.62175
G1 X129.709 Y100.726 E7.65177
G1 X129.836 Y101.62 E7.68181
G1 X129.884 Y102.697 E7.71766
G1 X129.861 Y105.319 E7.80487
G1 X129.875 Y106.014 E7.82799
G1 X129.885 Y107.286 E7.8703
G1 X129.852 Y108.188 E7.90032
G1 X129.739 Y109.084 E7.93036
G1 X129.548 Y109.967 E7.96041
G1 X129.279 Y110.829 E7.99044
G1 X128.935 Y111.664 E8.02048
G1 X128.584 Y112.351 E8.04614
G1 X128.393 Y112.692 E8.05914
G1 X127.961 Y113.395 E8.08658
G1 X127.832 Y113.587 E8.09428
G1 X127.548 Y113.989 E8.11065
G1 X127.452 Y114.118 E8.11599
G1 X127.227 Y114.409 E8.12823
G1 X127.053 Y114.626 E8.13748
G1 X126.628 Y115.123 E8.15923
G1 X126.418 Y115.353 E8.16959
G1 X125.979 Y115.804 E8.19052
G1 X125.76 Y116.016 E8.20066
G1 X125.399 Y116.349 E8.217
G1 X125.08 Y116.624 E8.231
G1 X124.898 Y116.775 E8.23887
G1 X124.544 Y117.055 E8.25388
G1 X124.445 Y117.13 E8.25801
G1 X124.14 Y117.353 E8.27058
G1 X123.906 Y117.517 E8.28008
