;FLAVOR:Marlin
;TIME:2209
;Filament used: 0.946074m
;Layer height: 0.16
;MINX:83.144
;MINY:78.764
;MINZ:0.2
;MAXX:147.814
;MAXY:131.23
;MAXZ:3.2
;Generated with Cura_SteamEngine master
M140 S60
M105
M190 S60
M104 S190
M105
M109 S190
M82 ;absolute extrusion mode
;posicionamiento absoluto

G90

;establecer el extrusor en modo absoluto

M82

;Apaga el fan de capa 

M107

;lleva el eje al inicio

G28

;Se mueve a esa posición

G1 X5 Y5 Z15 F3000

G1 Z15.0 F9000

;El eje E esta en cero

G92 E0

;extruye 10mm

G1 F200 E10

G92 E0

;Guardad esa velocidad

G1 F9000

;imprime en el LCD

M117 Imprimiendo...
G92 E0
G92 E0
G1 F2700 E-5
;LAYER_COUNT:16
;LAYER:0
M107
G1 F300 Z0.4
G0 F6000 X87.015 Y83.97 Z0.4
;TYPE:SKIRT
G1 F300 Z0.2
G1 F2700 E0
G1 F1200 X87.254 Y83.727 E0.01179
G1 X87.556 Y83.431 E0.02642
G1 X87.902 Y83.115 E0.04263
G1 X88.115 Y82.929 E0.05241
G1 X88.444 Y82.653 E0.06726
G1 X88.594 Y82.532 E0.07393
G1 X89.17 Y82.098 E0.09887
G1 X89.494 Y81.87 E0.11258
G1 X90.126 Y81.457 E0.13869
G1 X90.41 Y81.285 E0.15018
G1 X90.825 Y81.046 E0.16674
G1 X91.232 Y80.83 E0.18268
G1 X91.426 Y80.732 E0.1902
G1 X92.192 Y80.381 E0.21935
G1 X92.689 Y80.176 E0.23794
G1 X93.145 Y80 E0.25485
G1 X93.929 Y79.746 E0.28336
G1 X94.445 Y79.6 E0.30191
G1 X95.236 Y79.407 E0.33007
G1 X95.676 Y79.325 E0.34555
G1 X96.18 Y79.241 E0.36323
G1 X97.162 Y79.122 E0.39744
G1 X97.494 Y79.097 E0.40896
G1 X98.175 Y79.067 E0.43254
G1 X98.479 Y79.063 E0.44305
G1 X98.963 Y79.067 E0.4598
G1 X99.397 Y79.084 E0.47482
G1 X100.134 Y79.126 E0.50036
G1 X101.741 Y79.237 E0.55607
G1 X104.249 Y79.337 E0.6429
G1 X106.701 Y79.368 E0.72772
G1 X108.747 Y79.367 E0.79849
G1 X109.645 Y79.379 E0.82956
G1 X112.198 Y79.339 E0.91788
G1 X114.683 Y79.23 E1.00392
G1 X117.199 Y79.048 E1.09117
G1 X119.165 Y78.855 E1.15951
G1 X119.643 Y78.814 E1.1761
G1 X120.123 Y78.784 E1.19274
G1 X120.386 Y78.773 E1.20184
G1 X120.975 Y78.764 E1.22222
G1 X121.315 Y78.768 E1.23398
G1 X122.033 Y78.8 E1.25884
G1 X122.318 Y78.822 E1.26873
G1 X122.875 Y78.879 E1.2881
G1 X123.046 Y78.901 E1.29406
G1 X123.475 Y78.965 E1.30906
G1 X123.688 Y79.001 E1.31654
G1 X124.117 Y79.082 E1.33164
G1 X124.374 Y79.136 E1.34072
G1 X124.986 Y79.283 E1.36249
G1 X125.252 Y79.355 E1.37203
G1 X125.972 Y79.577 E1.39809
G1 X126.348 Y79.707 E1.41185
G1 X127.112 Y80.003 E1.44019
G1 X127.448 Y80.148 E1.45285
G1 X128.087 Y80.449 E1.47728
G1 X128.338 Y80.577 E1.48703
G1 X128.894 Y80.88 E1.50893
G1 X129.255 Y81.096 E1.52348
G1 X129.476 Y81.233 E1.53248
G1 X129.884 Y81.499 E1.54932
G1 X130.067 Y81.624 E1.55699
G1 X130.463 Y81.907 E1.57383
G1 X130.627 Y82.03 E1.58092
G1 X131.076 Y82.386 E1.60074
G1 X131.306 Y82.578 E1.6111
G1 X131.886 Y83.098 E1.63805
G1 X132.128 Y83.331 E1.64967
G1 X132.41 Y83.612 E1.66344
G1 X132.553 Y83.76 E1.67056
G1 X133.002 Y84.254 E1.69365
G1 X133.185 Y84.468 E1.70339
G1 X133.589 Y84.969 E1.72565
G1 X133.792 Y85.242 E1.73742
G1 X134.009 Y85.543 E1.75025
G1 X134.224 Y85.852 E1.76327
G1 X134.287 Y85.946 E1.76719
G1 X134.571 Y86.393 E1.78551
G1 X134.715 Y86.632 E1.79516
G1 X134.997 Y87.13 E1.81495
G1 X135.1 Y87.323 E1.82252
G1 X135.384 Y87.894 E1.84458
G1 X135.959 Y89.14 E1.89205
G1 X137.067 Y91.457 E1.98089
G1 X138.231 Y93.727 E2.06913
G1 X139.435 Y95.922 E2.15573
G1 X139.645 Y96.286 E2.17026
G1 X139.931 Y96.794 E2.19043
G1 X141.221 Y99.01 E2.27912
G1 X142.563 Y101.173 E2.36717
G1 X143.943 Y103.263 E2.45381
G1 X145.578 Y105.594 E2.55229
G1 X145.774 Y105.884 E2.5644
G1 X146.144 Y106.472 E2.58843
G1 X146.295 Y106.729 E2.59874
G1 X146.735 Y107.557 E2.63118
G1 X147.114 Y108.447 E2.66464
G1 X147.405 Y109.338 E2.69706
G1 X147.62 Y110.251 E2.7295
G1 X147.756 Y111.179 E2.76195
G1 X147.814 Y112.309 E2.80109
G1 X147.813 Y112.948 E2.82319
G1 X147.79 Y114.67 E2.88276
G1 X147.807 Y115.636 E2.91618
G1 X147.814 Y117.016 E2.96391
G1 X147.779 Y117.953 E2.99635
G1 X147.664 Y118.884 E3.0288
G1 X147.47 Y119.802 E3.06125
G1 X147.199 Y120.7 E3.0937
G1 X146.852 Y121.571 E3.12613
G1 X146.42 Y122.432 E3.15945
G1 X146.295 Y122.656 E3.16832
G1 X145.991 Y123.168 E3.18892
G1 X145.878 Y123.347 E3.19624
G1 X145.64 Y123.708 E3.2112
G1 X145.432 Y124.004 E3.22371
G1 X145.309 Y124.173 E3.23094
G1 X144.961 Y124.625 E3.25068
G1 X144.726 Y124.915 E3.26359
G1 X144.38 Y125.322 E3.28207
G1 X144.304 Y125.407 E3.28601
G1 X144.038 Y125.694 E3.29954
G1 X143.869 Y125.87 E3.30799
G1 X143.5 Y126.236 E3.32596
G1 X143.405 Y126.326 E3.33049
G1 X143.114 Y126.593 E3.34415
G1 X142.92 Y126.764 E3.3531
G1 X142.536 Y127.087 E3.37045
G1 X142.368 Y127.222 E3.37791
G1 X141.928 Y127.558 E3.39706
G1 X141.689 Y127.731 E3.40726
G1 X141.211 Y128.058 E3.4273
G1 X140.996 Y128.197 E3.43615
G1 X140.521 Y128.487 E3.4554
G1 X140.313 Y128.607 E3.46371
G1 X139.885 Y128.842 E3.4806
G1 X139.476 Y129.048 E3.49644
G1 X139.204 Y129.178 E3.50687
G1 X138.744 Y129.385 E3.52432
G1 X138.524 Y129.478 E3.53258
G1 X138.06 Y129.662 E3.54984
G1 X137.879 Y129.729 E3.55652
G1 X137.066 Y129.994 E3.5861
G1 X136.538 Y130.144 E3.60508
G1 X135.736 Y130.34 E3.63364
G1 X135.296 Y130.422 E3.64912
G1 X134.792 Y130.506 E3.6668
G1 X133.81 Y130.625 E3.70101
G1 X133.478 Y130.65 E3.71253
G1 X132.993 Y130.676 E3.72933
G1 X132.864 Y130.68 E3.7338
G1 X132.523 Y130.685 E3.74559
G1 X131.689 Y130.685 E3.77444
G1 X129.083 Y130.723 E3.86459
G1 X126.561 Y130.831 E3.95191
G1 X124.05 Y131.01 E4.03899
G1 X122.639 Y131.145 E4.08802
G1 X122.117 Y131.187 E4.10613
G1 X121.682 Y131.213 E4.12121
G1 X121.368 Y131.224 E4.13208
G1 X121.164 Y131.228 E4.13913
G1 X120.892 Y131.23 E4.14854
G1 X120.697 Y131.229 E4.15529
G1 X120.119 Y131.211 E4.17529
G1 X119.911 Y131.199 E4.1825
G1 X119.643 Y131.18 E4.19179
G1 X119.159 Y131.139 E4.20859
G1 X116.923 Y130.92 E4.28631
G1 X114.427 Y130.749 E4.37285
G1 X111.943 Y130.649 E4.45884
G1 X108.772 Y130.619 E4.56853
G1 X106.52 Y130.635 E4.64643
G1 X105.758 Y130.631 E4.67279
G1 X103.304 Y130.686 E4.7577
G1 X99.959 Y130.879 E4.87359
G1 X99.311 Y130.912 E4.89604
G1 X98.968 Y130.924 E4.90791
G1 X98.764 Y130.928 E4.91497
G1 X98.492 Y130.93 E4.92438
G1 X98.296 Y130.929 E4.93116
G1 X97.649 Y130.907 E4.95355
G1 X97.368 Y130.889 E4.96329
G1 X96.69 Y130.824 E4.98685
G1 X96.374 Y130.784 E4.99787
G1 X95.837 Y130.702 E5.01666
G1 X95.566 Y130.654 E5.02618
G1 X94.825 Y130.497 E5.05238
G1 X94.544 Y130.427 E5.06239
G1 X93.996 Y130.275 E5.08207
G1 X93.727 Y130.193 E5.09179
G1 X93.298 Y130.053 E5.1074
G1 X93.101 Y129.984 E5.11462
G1 X92.495 Y129.751 E5.13708
G1 X92.089 Y129.577 E5.15236
G1 X91.889 Y129.487 E5.15995
G1 X91.392 Y129.248 E5.17902
G1 X91.093 Y129.095 E5.19064
G1 X90.555 Y128.801 E5.21185
G1 X90.377 Y128.697 E5.21898
G1 X89.972 Y128.448 E5.23542
G1 X89.725 Y128.289 E5.24558
G1 X89.045 Y127.815 E5.27426
G1 X88.754 Y127.595 E5.28688
G1 X88.315 Y127.245 E5.3063
G1 X88.153 Y127.109 E5.31361
G1 X87.783 Y126.784 E5.33065
G1 X87.377 Y126.403 E5.34991
G1 X87.192 Y126.22 E5.35891
G1 X86.797 Y125.808 E5.37865
G1 X86.674 Y125.673 E5.38497
G1 X86.439 Y125.408 E5.39722
G1 X86.293 Y125.237 E5.405
G1 X85.958 Y124.825 E5.42336
G1 X85.794 Y124.613 E5.43264
G1 X85.396 Y124.063 E5.45612
G1 X85.199 Y123.773 E5.46825
G1 X84.806 Y123.151 E5.4937
G1 X84.659 Y122.9 E5.50376
G1 X84.22 Y122.071 E5.53621
G1 X83.853 Y121.208 E5.56865
G1 X83.561 Y120.317 E5.60108
G1 X83.346 Y119.404 E5.63352
G1 X83.21 Y118.476 E5.66597
G1 X83.163 Y117.846 E5.68782
G1 X83.155 Y117.672 E5.69384
G1 X83.144 Y117.052 E5.71529
G1 X83.168 Y114.74 E5.79527
G1 X83.155 Y114.032 E5.81977
G1 X83.144 Y112.639 E5.86795
G1 X83.166 Y111.859 E5.89494
G1 X83.323 Y109.367 E5.98131
G1 X83.412 Y106.86 E6.06809
G1 X83.431 Y104.333 E6.1555
G1 X83.377 Y101.813 E6.24269
G1 X83.251 Y99.261 E6.33107
G1 X83.228 Y98.942 E6.34213
G1 X83.177 Y98.08 E6.372
G1 X83.158 Y97.464 E6.39332
G1 X83.158 Y96.98 E6.41006
G1 X83.182 Y94.952 E6.48022
G1 X83.167 Y94.127 E6.50876
G1 X83.158 Y92.754 E6.55625
G1 X83.192 Y91.817 E6.58868
G1 X83.306 Y90.886 E6.62113
G1 X83.498 Y89.968 E6.65357
G1 X83.768 Y89.07 E6.68601
G1 X84.113 Y88.198 E6.71844
G1 X84.556 Y87.315 E6.75262
G1 X84.722 Y87.018 E6.76439
G1 X85.153 Y86.312 E6.793
G1 X85.302 Y86.087 E6.80233
G1 X85.709 Y85.513 E6.82667
G1 X86.014 Y85.113 E6.84407
G1 X86.055 Y85.061 E6.84636
G1 X86.385 Y84.663 E6.86425
G1 X86.549 Y84.474 E6.8729
G1 X87.015 Y83.97 E6.89664
G0 F6000 X87.3 Y84.25
G1 F1200 X87.539 Y84.007 E6.90843
G1 X87.831 Y83.721 E6.92257
G1 X88.165 Y83.417 E6.9382
G1 X88.378 Y83.231 E6.94798
G1 X88.695 Y82.965 E6.96229
G1 X88.845 Y82.844 E6.96896
G1 X89.4 Y82.425 E6.99301
G1 X89.724 Y82.197 E7.00672
G1 X90.333 Y81.799 E7.03188
G1 X90.617 Y81.627 E7.04337
G1 X91.017 Y81.397 E7.05933
G1 X91.413 Y81.187 E7.07483
G1 X91.607 Y81.089 E7.08235
G1 X92.344 Y80.751 E7.1104
G1 X92.841 Y80.546 E7.12899
G1 X93.282 Y80.375 E7.14535
G1 X94.038 Y80.13 E7.17284
G1 X94.554 Y79.984 E7.19139
G1 X95.316 Y79.799 E7.21852
G1 X95.741 Y79.719 E7.23347
G1 X96.245 Y79.635 E7.25115
G1 X97.192 Y79.521 E7.28414
G1 X97.524 Y79.496 E7.29566
G1 X98.181 Y79.467 E7.31841
G1 X98.485 Y79.463 E7.32892
G1 X98.951 Y79.467 E7.34504
G1 X99.375 Y79.483 E7.35972
G1 X100.106 Y79.525 E7.38505
G1 X101.695 Y79.634 E7.44014
G1 X104.266 Y79.737 E7.52914
G1 X106.696 Y79.768 E7.61321
G1 X108.742 Y79.767 E7.68398
G1 X109.646 Y79.779 E7.71525
G1 X112.188 Y79.739 E7.80319
G1 X114.728 Y79.628 E7.89114
G1 X117.228 Y79.447 E7.97784
G1 X119.199 Y79.254 E8.04634
G1 X119.677 Y79.213 E8.06294
G1 X120.14 Y79.183 E8.07899
G1 X120.403 Y79.172 E8.08809
G1 X120.971 Y79.164 E8.10774
G1 X121.311 Y79.168 E8.1195
G1 X122.002 Y79.198 E8.14343
G1 X122.287 Y79.22 E8.15331
G1 X122.824 Y79.276 E8.17199
G1 X122.995 Y79.298 E8.17795
G1 X123.408 Y79.359 E8.1924
G1 X123.621 Y79.395 E8.19987
G1 X124.035 Y79.474 E8.21445
G1 X124.292 Y79.528 E8.22353
G1 X124.882 Y79.669 E8.24451
G1 X125.148 Y79.741 E8.25405
G1 X125.842 Y79.955 E8.27917
G1 X126.218 Y80.085 E8.29293
G1 X126.954 Y80.371 E8.32024
G1 X127.29 Y80.516 E8.3329
G1 X127.906 Y80.805 E8.35644
G1 X128.157 Y80.933 E8.36618
G1 X128.692 Y81.226 E8.38728
G1 X129.044 Y81.436 E8.40146
G1 X129.265 Y81.573 E8.41045
G1 X129.659 Y81.829 E8.42671
G1 X129.842 Y81.954 E8.43437
G1 X130.223 Y82.227 E8.45059
G1 X130.387 Y82.35 E8.45768
G1 X130.82 Y82.693 E8.47678
G1 X131.05 Y82.885 E8.48715
G1 X131.609 Y83.386 E8.51311
G1 X131.851 Y83.619 E8.52473
G1 X132.122 Y83.89 E8.53799
G1 X132.265 Y84.038 E8.54511
G1 X132.698 Y84.514 E8.56737
G1 X132.881 Y84.728 E8.57711
G1 X133.27 Y85.211 E8.59856
G1 X133.467 Y85.476 E8.60998
G1 X133.684 Y85.777 E8.62282
G1 X133.891 Y86.075 E8.63537
G1 X133.954 Y86.169 E8.63928
G1 X134.228 Y86.6 E8.65695
G1 X134.372 Y86.839 E8.6666
G1 X134.645 Y87.318 E8.68567
G1 X134.748 Y87.511 E8.69324
G1 X135.021 Y88.061 E8.71448
G1 X135.607 Y89.331 E8.76286
G1 X136.707 Y91.633 E8.85111
G1 X137.89 Y93.938 E8.94073
G1 X139.088 Y96.122 E9.02689
G1 X139.296 Y96.482 E9.04127
G1 X139.537 Y96.911 E9.0583
G1 X140.895 Y99.242 E9.15161
G1 X142.222 Y101.382 E9.23871
G1 X143.598 Y103.467 E9.32512
G1 X145.14 Y105.663 E9.41794
G1 X145.442 Y106.108 E9.43654
G1 X145.799 Y106.674 E9.45969
G1 X145.95 Y106.931 E9.47
G1 X146.382 Y107.745 E9.50188
G1 X146.739 Y108.587 E9.53351
G1 X147.025 Y109.462 E9.56535
G1 X147.233 Y110.359 E9.59721
G1 X147.363 Y111.271 E9.62907
G1 X147.414 Y112.309 E9.66502
G1 X147.413 Y112.942 E9.68692
G1 X147.39 Y114.671 E9.74673
G1 X147.407 Y115.638 E9.78018
G1 X147.414 Y117.018 E9.82792
G1 X147.379 Y117.938 E9.85976
G1 X147.264 Y118.852 E9.89163
G1 X147.07 Y119.752 E9.92348
G1 X146.798 Y120.631 E9.9553
G1 X146.452 Y121.484 E9.98714
G1 X146.07 Y122.237 E10.01635
G1 X145.945 Y122.461 E10.02522
G1 X145.652 Y122.954 E10.04506
G1 X145.539 Y123.133 E10.05238
G1 X145.309 Y123.483 E10.06687
G1 X145.108 Y123.769 E10.07896
G1 X144.985 Y123.938 E10.08619
G1 X144.65 Y124.374 E10.10521
G1 X144.415 Y124.664 E10.11812
G1 X144.082 Y125.055 E10.13589
G1 X144.006 Y125.14 E10.13983
G1 X143.75 Y125.417 E10.15288
G1 X143.581 Y125.593 E10.16132
G1 X143.225 Y125.946 E10.17866
G1 X143.13 Y126.036 E10.18319
G1 X142.849 Y126.293 E10.19636
G1 X142.655 Y126.464 E10.2053
G1 X142.286 Y126.775 E10.222
G1 X142.118 Y126.91 E10.22945
G1 X141.693 Y127.234 E10.24794
G1 X141.454 Y127.407 E10.25814
G1 X140.994 Y127.722 E10.27743
G1 X140.779 Y127.861 E10.28628
G1 X140.321 Y128.141 E10.30485
G1 X140.113 Y128.261 E10.31316
G1 X139.698 Y128.488 E10.32952
G1 X139.304 Y128.687 E10.34479
G1 X139.032 Y128.817 E10.35522
G1 X138.588 Y129.016 E10.37205
G1 X138.368 Y129.109 E10.38031
G1 X137.921 Y129.287 E10.39695
G1 X137.74 Y129.354 E10.40363
G1 X136.957 Y129.61 E10.43212
G1 X136.429 Y129.76 E10.45111
G1 X135.656 Y129.948 E10.47863
G1 X135.231 Y130.028 E10.49359
G1 X134.727 Y130.112 E10.51126
G1 X133.78 Y130.226 E10.54426
G1 X133.448 Y130.251 E10.55577
G1 X132.981 Y130.276 E10.57195
G1 X132.852 Y130.28 E10.57641
G1 X132.523 Y130.285 E10.58779
G1 X131.684 Y130.285 E10.61682
G1 X129.058 Y130.323 E10.70766
G1 X126.551 Y130.43 E10.79446
G1 X124.026 Y130.61 E10.88202
G1 X122.607 Y130.746 E10.93133
G1 X122.085 Y130.788 E10.94944
G1 X121.662 Y130.814 E10.9641
G1 X121.36 Y130.824 E10.97456
G1 X120.894 Y130.83 E10.99068
G1 X120.699 Y130.829 E10.99742
G1 X120.142 Y130.811 E11.0167
G1 X119.676 Y130.781 E11.03285
G1 X119.197 Y130.741 E11.04948
G1 X116.953 Y130.522 E11.12747
G1 X114.434 Y130.348 E11.21481
G1 X111.963 Y130.249 E11.30035
G1 X108.772 Y130.219 E11.41073
G1 X106.522 Y130.235 E11.48856
G1 X105.751 Y130.231 E11.51523
G1 X103.272 Y130.287 E11.60101
G1 X99.939 Y130.479 E11.71649
G1 X99.291 Y130.512 E11.73893
G1 X98.96 Y130.524 E11.75039
G1 X98.494 Y130.53 E11.76651
G1 X98.298 Y130.529 E11.77329
G1 X97.674 Y130.507 E11.79489
G1 X97.393 Y130.489 E11.80463
G1 X96.74 Y130.427 E11.82732
G1 X96.424 Y130.387 E11.83833
G1 X95.906 Y130.309 E11.85645
G1 X95.635 Y130.261 E11.86597
G1 X94.922 Y130.109 E11.89119
G1 X94.641 Y130.039 E11.90121
G1 X94.112 Y129.892 E11.9202
G1 X93.843 Y129.81 E11.92993
G1 X93.43 Y129.675 E11.94496
G1 X93.233 Y129.606 E11.95218
G1 X92.65 Y129.382 E11.97378
G1 X92.253 Y129.212 E11.98872
G1 X92.053 Y129.122 E11.99631
G1 X91.574 Y128.892 E12.01469
G1 X91.275 Y128.739 E12.0263
G1 X90.757 Y128.455 E12.04674
G1 X90.579 Y128.351 E12.05387
G1 X90.188 Y128.112 E12.06972
G1 X89.941 Y127.953 E12.07988
G1 X89.287 Y127.496 E12.10748
G1 X88.996 Y127.276 E12.1201
G1 X88.573 Y126.938 E12.13883
G1 X88.411 Y126.802 E12.14614
G1 X88.162 Y126.587 E12.15752
G1 X88.049 Y126.486 E12.16277
G1 X87.659 Y126.119 E12.18129
G1 X87.474 Y125.936 E12.19029
G1 X87.093 Y125.539 E12.20932
G1 X86.97 Y125.404 E12.21564
G1 X86.744 Y125.148 E12.22745
G1 X86.598 Y124.977 E12.23523
G1 X86.275 Y124.58 E12.25293
G1 X86.111 Y124.368 E12.26221
G1 X85.727 Y123.838 E12.28484
G1 X85.53 Y123.548 E12.29697
G1 X85.151 Y122.949 E12.32149
G1 X85.004 Y122.698 E12.33155
G1 X84.574 Y121.884 E12.3634
G1 X84.216 Y121.036 E12.39524
G1 X83.933 Y120.16 E12.42708
G1 X83.727 Y119.263 E12.45891
G1 X83.599 Y118.351 E12.49077
G1 X83.562 Y117.828 E12.50891
G1 X83.554 Y117.654 E12.51493
G1 X83.544 Y117.056 E12.53562
G1 X83.568 Y114.736 E12.61587
G1 X83.555 Y114.029 E12.64033
G1 X83.544 Y112.636 E12.68852
G1 X83.565 Y111.884 E12.71454
G1 X83.724 Y109.37 E12.80168
G1 X83.812 Y106.877 E12.88796
G1 X83.831 Y104.327 E12.97617
G1 X83.777 Y101.784 E13.06416
G1 X83.651 Y99.251 E13.15188
G1 X83.628 Y98.918 E13.16343
G1 X83.577 Y98.056 E13.1933
G1 X83.558 Y97.463 E13.21382
G1 X83.558 Y96.985 E13.23035
G1 X83.582 Y94.95 E13.30075
G1 X83.567 Y94.124 E13.32933
G1 X83.558 Y92.751 E13.37682
G1 X83.592 Y91.831 E13.40867
G1 X83.706 Y90.918 E13.44049
G1 X83.898 Y90.018 E13.47232
G1 X84.168 Y89.137 E13.5042
G1 X84.513 Y88.284 E13.53603
G1 X84.905 Y87.51 E13.56604
G1 X85.071 Y87.213 E13.57781
G1 X85.486 Y86.532 E13.60539
G1 X85.635 Y86.307 E13.61473
G1 X86.027 Y85.754 E13.63817
G1 X86.328 Y85.361 E13.6553
G1 X86.687 Y84.925 E13.67483
G1 X86.851 Y84.736 E13.68349
G1 X87.3 Y84.25 E13.70638
G0 F6000 X87.585 Y84.531
G1 F1200 X87.824 Y84.288 E13.71817
G1 X88.107 Y84.011 E13.73186
G1 X88.428 Y83.718 E13.7469
G1 X88.641 Y83.532 E13.75668
G1 X88.946 Y83.276 E13.77045
G1 X89.096 Y83.155 E13.77712
G1 X89.63 Y82.752 E13.80026
G1 X89.954 Y82.524 E13.81396
G1 X90.54 Y82.141 E13.83818
