;FLAVOR:Marlin
;TIME:383
;Filament used: 0.202727m
;Layer height: 0.2
;MINX:89.32
;MINY:89.012
;MINZ:0.2
;MAXX:141.285
;MAXY:120.989
;MAXZ:3.2
;Generated with Cura_SteamEngine master
M140 S50
M105
M190 S50
M104 S200
M105
M109 S200
M82 ;absolute extrusion mode
;posicionamiento absoluto

G90

;establecer el extrusor en modo absoluto

M82

;Apaga el fan de capa 

M107

;lleva el eje al inicio

G28

;Se mueve a esa posición

G1 X5 Y5 Z15 F3000

G1 Z15.0 F9000

;El eje E esta en cero

G92 E0

;extruye 10mm

G1 F200 E10

G92 E0

;Guardad esa velocidad

G1 F9000

;imprime en el LCD

M117 Imprimiendo...
G92 E0
G92 E0
G1 F2700 E-5
;LAYER_COUNT:16
;LAYER:0
M107
G0 F6000 X93.37 Y93.716 Z0.2
;TYPE:SKIRT
G1 F2700 E0
G1 F1200 X93.534 Y93.554 E0.00767
G1 X93.985 Y93.133 E0.02819
G1 X94.266 Y92.885 E0.04065
G1 X94.857 Y92.399 E0.0661
G1 X95.062 Y92.242 E0.07469
G1 X95.377 Y92.009 E0.08772
G1 X95.498 Y91.923 E0.09266
G1 X95.757 Y91.745 E0.10311
G1 X95.926 Y91.632 E0.10987
G1 X96.562 Y91.237 E0.13478
G1 X96.865 Y91.063 E0.1464
G1 X97.282 Y90.835 E0.1622
G1 X97.475 Y90.735 E0.16943
G1 X98.016 Y90.474 E0.18941
G1 X98.472 Y90.272 E0.206
G1 X98.8 Y90.138 E0.21778
G1 X99.012 Y90.055 E0.22536
G1 X99.65 Y89.828 E0.24788
G1 X99.917 Y89.742 E0.25721
G1 X100.764 Y89.506 E0.28645
G1 X101.311 Y89.377 E0.30515
G1 X102.34 Y89.185 E0.33996
G1 X102.646 Y89.143 E0.35023
G1 X103.166 Y89.084 E0.36764
G1 X103.413 Y89.062 E0.37589
G1 X103.976 Y89.027 E0.39465
G1 X104.242 Y89.017 E0.4035
G1 X104.945 Y89.013 E0.42689
G1 X105.248 Y89.021 E0.43697
G1 X105.742 Y89.045 E0.45342
G1 X105.924 Y89.058 E0.45949
G1 X106.228 Y89.084 E0.46963
G1 X106.457 Y89.107 E0.47729
G1 X109.026 Y89.324 E0.56304
G1 X111.562 Y89.466 E0.64752
G1 X114.086 Y89.537 E0.7315
G1 X116.61 Y89.537 E0.81545
G1 X119.095 Y89.466 E0.89813
G1 X121.612 Y89.322 E0.98199
G1 X124.352 Y89.081 E1.07347
G1 X124.835 Y89.046 E1.08958
G1 X125.089 Y89.032 E1.09804
G1 X125.431 Y89.018 E1.10942
G1 X125.64 Y89.013 E1.11638
G1 X126.086 Y89.012 E1.13121
G1 X126.266 Y89.015 E1.1372
G1 X126.718 Y89.031 E1.15224
G1 X126.96 Y89.045 E1.1603
G1 X127.697 Y89.113 E1.18492
G1 X128.047 Y89.157 E1.19665
G1 X128.58 Y89.237 E1.21458
G1 X128.853 Y89.285 E1.2238
G1 X129.523 Y89.425 E1.24656
G1 X129.739 Y89.477 E1.25395
G1 X130.224 Y89.605 E1.27064
G1 X130.483 Y89.68 E1.27961
G1 X131.051 Y89.861 E1.29943
G1 X131.197 Y89.912 E1.30458
G1 X131.686 Y90.094 E1.32193
G1 X132.359 Y90.373 E1.34616
G1 X132.647 Y90.504 E1.35669
G1 X133.22 Y90.785 E1.37791
G1 X133.518 Y90.942 E1.38912
G1 X133.977 Y91.198 E1.4066
G1 X134.335 Y91.414 E1.4205
G1 X134.515 Y91.527 E1.42757
G1 X135.02 Y91.864 E1.44776
G1 X135.419 Y92.15 E1.46409
G1 X135.573 Y92.265 E1.47048
G1 X136.089 Y92.676 E1.49243
G1 X136.295 Y92.85 E1.50139
G1 X136.713 Y93.222 E1.52
G1 X136.947 Y93.441 E1.53066
G1 X137.38 Y93.869 E1.55091
G1 X137.556 Y94.053 E1.55938
G1 X137.783 Y94.297 E1.57047
G1 X137.864 Y94.387 E1.57449
G1 X138.217 Y94.8 E1.59257
G1 X138.353 Y94.967 E1.59973
G1 X138.647 Y95.344 E1.61563
G1 X138.784 Y95.528 E1.62326
G1 X139.065 Y95.924 E1.63941
G1 X139.204 Y96.129 E1.64765
G1 X139.535 Y96.647 E1.66809
G1 X139.716 Y96.949 E1.6798
G1 X140.164 Y97.773 E1.711
G1 X140.539 Y98.633 E1.7422
G1 X140.721 Y99.137 E1.76003
G1 X140.979 Y100.039 E1.79123
G1 X141.16 Y100.959 E1.82242
G1 X141.261 Y101.892 E1.85363
G1 X141.285 Y102.716 E1.88105
G1 X141.261 Y105.313 E1.96743
G1 X141.275 Y106.008 E1.99055
G1 X141.285 Y107.28 E2.03286
G1 X141.252 Y108.217 E2.06404
G1 X141.14 Y109.148 E2.09523
G1 X140.948 Y110.066 E2.12642
G1 X140.68 Y110.965 E2.15762
G1 X140.335 Y111.837 E2.18881
G1 X139.882 Y112.741 E2.22244
G1 X139.691 Y113.082 E2.23544
G1 X139.225 Y113.842 E2.26509
G1 X139.096 Y114.034 E2.27279
G1 X138.791 Y114.464 E2.29032
G1 X138.701 Y114.585 E2.29534
G1 X138.465 Y114.892 E2.30822
G1 X138.285 Y115.117 E2.3178
G1 X137.818 Y115.662 E2.34167
G1 X137.608 Y115.892 E2.35203
G1 X137.149 Y116.366 E2.37398
G1 X136.941 Y116.568 E2.38362
G1 X136.545 Y116.933 E2.40153
G1 X136.207 Y117.226 E2.41641
G1 X136.032 Y117.372 E2.42399
G1 X135.571 Y117.737 E2.44355
G1 X135.472 Y117.811 E2.44766
G1 X135.199 Y118.008 E2.45886
G1 X134.965 Y118.172 E2.46836
G1 X134.57 Y118.436 E2.48416
G1 X134.429 Y118.526 E2.48973
G1 X134.086 Y118.736 E2.5031
G1 X133.87 Y118.863 E2.51144
G1 X133.326 Y119.163 E2.5321
G1 X132.93 Y119.361 E2.54682
G1 X132.685 Y119.478 E2.55585
G1 X132.248 Y119.675 E2.5718
G1 X132.001 Y119.78 E2.58072
G1 X131.25 Y120.068 E2.60748
G1 X130.954 Y120.169 E2.61788
G1 X130.402 Y120.341 E2.63711
G1 X130.088 Y120.43 E2.64796
G1 X129.374 Y120.607 E2.67243
G1 X129.054 Y120.675 E2.68331
G1 X128.37 Y120.798 E2.70643
G1 X128.139 Y120.832 E2.71419
G1 X127.601 Y120.897 E2.73222
G1 X127.251 Y120.931 E2.74391
G1 X126.468 Y120.979 E2.77
G1 X126.155 Y120.987 E2.78042
G1 X125.403 Y120.981 E2.80543
G1 X125.076 Y120.967 E2.81632
G1 X124.648 Y120.94 E2.83058
G1 X123.398 Y120.837 E2.8723
G1 X122.504 Y120.751 E2.90217
G1 X120.035 Y120.585 E2.98447
G1 X117.467 Y120.484 E3.06995
G1 X114.981 Y120.458 E3.15264
G1 X112.49 Y120.501 E3.2355
G1 X109.964 Y120.616 E3.31961
G1 X106.677 Y120.872 E3.42926
G1 X106.115 Y120.926 E3.44804
G1 X105.814 Y120.951 E3.45809
G1 X105.431 Y120.973 E3.47085
G1 X105.231 Y120.981 E3.4775
G1 X104.644 Y120.989 E3.49703
G1 X104.345 Y120.985 E3.50697
G1 X103.711 Y120.958 E3.52808
G1 X103.402 Y120.936 E3.53838
G1 X102.704 Y120.864 E3.56172
G1 X102.446 Y120.829 E3.57038
G1 X102.03 Y120.765 E3.58438
G1 X101.767 Y120.719 E3.59326
G1 X100.758 Y120.493 E3.62765
G1 X100.221 Y120.346 E3.64617
G1 X99.378 Y120.078 E3.67559
G1 X99.102 Y119.978 E3.68536
G1 X98.452 Y119.719 E3.70863
G1 X98.186 Y119.603 E3.71828
G1 X97.77 Y119.411 E3.73352
G1 X97.376 Y119.214 E3.74817
G1 X97.167 Y119.104 E3.75602
G1 X96.897 Y118.957 E3.76625
G1 X96.753 Y118.876 E3.77174
G1 X96.25 Y118.576 E3.79122
G1 X96.009 Y118.423 E3.80072
G1 X95.541 Y118.108 E3.81948
G1 X95.369 Y117.986 E3.8265
G1 X94.904 Y117.637 E3.84583
G1 X94.63 Y117.42 E3.85746
G1 X94.114 Y116.985 E3.87991
G1 X93.91 Y116.802 E3.88902
G1 X93.236 Y116.144 E3.92035
G1 X92.866 Y115.75 E3.93833
G1 X92.23 Y115.009 E3.97081
G1 X92.03 Y114.754 E3.98158
G1 X91.748 Y114.378 E3.99722
G1 X91.626 Y114.208 E4.00418
G1 X91.207 Y113.58 E4.02929
G1 X91.032 Y113.297 E4.04035
G1 X90.625 Y112.58 E4.06777
G1 X90.557 Y112.449 E4.07268
G1 X90.161 Y111.599 E4.10387
G1 X89.838 Y110.718 E4.13508
G1 X89.592 Y109.813 E4.16627
G1 X89.424 Y108.89 E4.19748
G1 X89.335 Y107.957 E4.22865
G1 X89.32 Y107.417 E4.24662
G1 X89.32 Y106.939 E4.26252
G1 X89.345 Y104.966 E4.32814
G1 X89.328 Y104.062 E4.35822
G1 X89.32 Y102.688 E4.40392
G1 X89.355 Y101.751 E4.4351
G1 X89.469 Y100.82 E4.4663
G1 X89.662 Y99.902 E4.4975
G1 X89.933 Y99.004 E4.5287
G1 X90.279 Y98.132 E4.5599
G1 X90.715 Y97.262 E4.59227
G1 X90.873 Y96.979 E4.60305
G1 X91.299 Y96.28 E4.63027
G1 X91.472 Y96.018 E4.64072
G1 X91.876 Y95.446 E4.66401
G1 X92.153 Y95.088 E4.67906
G1 X92.332 Y94.866 E4.68855
G1 X92.699 Y94.434 E4.7074
G1 X92.904 Y94.205 E4.71762
G1 X93.37 Y93.716 E4.74009
G0 F6000 X93.651 Y94.001
G1 F1200 X93.815 Y93.839 E4.74776
G1 X94.25 Y93.433 E4.76755
G1 X94.531 Y93.185 E4.78001
G1 X95.1 Y92.716 E4.80454
G1 X95.305 Y92.559 E4.81313
G1 X95.609 Y92.335 E4.82569
G1 X95.979 Y92.077 E4.84069
G1 X96.148 Y91.964 E4.84745
G1 X96.761 Y91.584 E4.87144
G1 X97.064 Y91.41 E4.88306
G1 X97.466 Y91.19 E4.8983
G1 X97.659 Y91.09 E4.90553
G1 X98.18 Y90.838 E4.92478
G1 X98.373 Y90.751 E4.93182
G1 X98.707 Y90.607 E4.94392
G1 X99.158 Y90.428 E4.96006
G1 X99.772 Y90.208 E4.98175
G1 X100.039 Y90.122 E4.99108
G1 X100.856 Y89.895 E5.01928
G1 X101.403 Y89.766 E5.03798
G1 X102.395 Y89.581 E5.07154
G1 X102.701 Y89.539 E5.08181
G1 X103.202 Y89.483 E5.09858
G1 X103.449 Y89.461 E5.10683
G1 X103.991 Y89.426 E5.12489
G1 X104.257 Y89.416 E5.13374
G1 X104.935 Y89.413 E5.1563
G1 X105.238 Y89.421 E5.16638
G1 X105.713 Y89.444 E5.18219
G1 X105.895 Y89.457 E5.18826
G1 X106.188 Y89.482 E5.19804
G1 X106.444 Y89.507 E5.2066
G1 X109.009 Y89.724 E5.29221
G1 X111.527 Y89.866 E5.3761
G1 X114.075 Y89.937 E5.46088
G1 X116.586 Y89.937 E5.54439
G1 X119.13 Y89.864 E5.62904
G1 X121.637 Y89.721 E5.71256
G1 X124.383 Y89.479 E5.80425
G1 X124.857 Y89.445 E5.82005
G1 X125.111 Y89.431 E5.82851
G1 X125.44 Y89.418 E5.83946
G1 X125.649 Y89.413 E5.84642
G1 X126.08 Y89.411 E5.86075
G1 X126.26 Y89.414 E5.86674
G1 X126.695 Y89.431 E5.88122
G1 X126.937 Y89.445 E5.88928
G1 X127.647 Y89.51 E5.913
G1 X127.997 Y89.554 E5.92473
G1 X128.511 Y89.631 E5.94201
G1 X128.784 Y89.679 E5.95123
G1 X129.429 Y89.813 E5.97315
G1 X129.645 Y89.865 E5.98053
G1 X130.112 Y89.989 E5.99661
G1 X130.371 Y90.064 E6.00557
G1 X130.919 Y90.239 E6.02471
G1 X131.309 Y90.379 E6.03849
G1 X131.545 Y90.468 E6.04688
G1 X132.194 Y90.737 E6.07024
G1 X132.482 Y90.868 E6.08077
G1 X133.034 Y91.139 E6.10122
G1 X133.332 Y91.296 E6.11242
G1 X133.774 Y91.542 E6.12925
G1 X134.122 Y91.752 E6.14277
G1 X134.302 Y91.865 E6.14984
G1 X134.789 Y92.19 E6.16931
G1 X134.96 Y92.311 E6.17628
G1 X135.333 Y92.586 E6.19169
G1 X135.831 Y92.981 E6.21283
G1 X136.037 Y93.155 E6.2218
G1 X136.44 Y93.514 E6.23975
G1 X136.674 Y93.733 E6.25041
G1 X137.091 Y94.145 E6.26991
G1 X137.267 Y94.329 E6.27838
G1 X137.567 Y94.655 E6.29311
G1 X137.907 Y95.052 E6.3105
G1 X138.043 Y95.219 E6.31766
G1 X138.326 Y95.583 E6.33299
G1 X138.463 Y95.767 E6.34062
G1 X138.734 Y96.148 E6.35617
G1 X138.873 Y96.353 E6.36441
G1 X139.192 Y96.853 E6.38414
G1 X139.373 Y97.155 E6.39585
G1 X139.812 Y97.964 E6.42646
G1 X140.178 Y98.809 E6.45709
G1 X140.341 Y99.264 E6.47317
G1 X140.594 Y100.149 E6.50378
G1 X140.769 Y101.053 E6.53441
G1 X140.865 Y101.969 E6.56504
G1 X140.885 Y102.712 E6.58976
G1 X140.861 Y105.318 E6.67644
G1 X140.875 Y106.011 E6.69949
G1 X140.885 Y107.283 E6.7418
G1 X140.852 Y108.203 E6.77242
G1 X140.739 Y109.116 E6.80302
G1 X140.548 Y110.017 E6.83365
G1 X140.279 Y110.898 E6.86429
G1 X139.935 Y111.752 E6.89491
G1 X139.533 Y112.546 E6.92451
G1 X139.342 Y112.887 E6.93751
G1 X138.893 Y113.619 E6.96607
G1 X138.764 Y113.811 E6.97377
G1 X138.47 Y114.225 E6.99066
G1 X138.38 Y114.346 E6.99567
G1 X138.152 Y114.642 E7.0081
G1 X137.972 Y114.867 E7.01768
G1 X137.523 Y115.392 E7.04066
G1 X137.313 Y115.622 E7.05102
G1 X136.87 Y116.079 E7.07219
G1 X136.662 Y116.281 E7.08183
G1 X136.281 Y116.633 E7.09908
G1 X135.951 Y116.919 E7.11361
G1 X135.776 Y117.065 E7.12119
G1 X135.331 Y117.416 E7.14004
G1 X134.97 Y117.68 E7.15491
G1 X134.736 Y117.844 E7.16442
G1 X134.355 Y118.099 E7.17967
G1 X134.214 Y118.189 E7.18523
G1 X133.884 Y118.392 E7.19812
G1 X133.668 Y118.519 E7.20645
G1 X133.143 Y118.807 E7.22637
G1 X132.758 Y119 E7.24069
G1 X132.513 Y119.117 E7.24972
G1 X132.092 Y119.307 E7.26508
G1 X131.845 Y119.412 E7.27401
G1 X131.121 Y119.689 E7.29979
G1 X130.825 Y119.79 E7.31019
G1 X130.293 Y119.956 E7.32873
G1 X129.979 Y120.045 E7.33959
G1 X129.291 Y120.215 E7.36316
G1 X128.971 Y120.283 E7.37404
G1 X128.312 Y120.402 E7.39631
G1 X128.081 Y120.436 E7.40408
G1 X127.562 Y120.499 E7.42147
G1 X127.212 Y120.533 E7.43316
G1 X126.458 Y120.58 E7.45829
G1 X126.145 Y120.588 E7.4687
G1 X125.421 Y120.581 E7.49278
G1 X125.094 Y120.567 E7.50367
G1 X124.68 Y120.542 E7.51746
G1 X123.583 Y120.452 E7.55407
G1 X122.568 Y120.355 E7.58799
G1 X120.042 Y120.185 E7.67219
G1 X117.487 Y120.084 E7.75724
G1 X114.979 Y120.058 E7.84066
G1 X112.465 Y120.101 E7.92429
G1 X109.946 Y120.216 E8.00816
G1 X106.665 Y120.472 E8.11761
G1 X106.077 Y120.528 E8.13726
G1 X105.784 Y120.552 E8.14704
G1 X105.415 Y120.574 E8.15933
G1 X105.215 Y120.582 E8.16599
G1 X104.649 Y120.589 E8.18482
G1 X104.35 Y120.585 E8.19476
G1 X103.739 Y120.559 E8.2151
G1 X103.43 Y120.537 E8.22541
G1 X102.758 Y120.468 E8.24787
G1 X102.5 Y120.433 E8.25653
G1 X102.099 Y120.37 E8.27003
G1 X101.836 Y120.324 E8.27891
G1 X100.863 Y120.107 E8.31207
G1 X100.326 Y119.96 E8.33059
G1 X99.514 Y119.702 E8.35893
G1 X99.238 Y119.602 E8.36869
G1 X98.612 Y119.352 E8.39111
G1 X98.346 Y119.236 E8.40076
G1 X97.942 Y119.05 E8.41556
G1 X97.562 Y118.86 E8.42969
G1 X97.353 Y118.75 E8.43754
G1 X97.093 Y118.609 E8.44738
G1 X96.949 Y118.528 E8.45287
G1 X96.465 Y118.238 E8.47164
G1 X96.224 Y118.085 E8.48113
G1 X95.772 Y117.782 E8.49923
G1 X95.6 Y117.66 E8.50625
G1 X95.152 Y117.324 E8.52487
G1 X94.878 Y117.107 E8.5365
G1 X94.381 Y116.687 E8.55814
G1 X94.177 Y116.504 E8.56726
G1 X93.528 Y115.87 E8.59743
G1 X93.158 Y115.476 E8.61541
G1 X92.544 Y114.762 E8.64673
G1 X92.344 Y114.507 E8.65751
G1 X92.073 Y114.145 E8.67255
G1 X91.951 Y113.975 E8.67951
G1 X91.547 Y113.37 E8.7037
G1 X91.372 Y113.087 E8.71477
G1 X90.98 Y112.396 E8.7412
G1 X90.912 Y112.265 E8.7461
G1 X90.524 Y111.43 E8.77673
G1 X90.209 Y110.564 E8.80738
G1 X89.971 Y109.675 E8.83799
G1 X89.811 Y108.768 E8.86862
G1 X89.72 Y107.416 E8.91369
G1 X89.72 Y106.944 E8.92939
G1 X89.745 Y104.964 E8.99525
G1 X89.728 Y104.06 E9.02532
G1 X89.72 Y102.686 E9.07102
G1 X89.755 Y101.766 E9.10164
G1 X89.869 Y100.852 E9.13228
G1 X90.062 Y99.952 E9.16289
G1 X90.333 Y99.072 E9.19352
G1 X90.679 Y98.219 E9.22413
G1 X91.065 Y97.457 E9.25254
G1 X91.223 Y97.174 E9.26332
G1 X91.632 Y96.5 E9.28955
G1 X91.805 Y96.238 E9.29999
G1 X92.195 Y95.688 E9.32241
G1 X92.464 Y95.34 E9.33704
G1 X92.643 Y95.118 E9.34653
G1 X92.997 Y94.701 E9.36472
G1 X93.202 Y94.472 E9.37494
G1 X93.651 Y94.001 E9.39659
G0 F6000 X93.932 Y94.285
G1 F1200 X94.096 Y94.123 E9.40426
G1 X94.515 Y93.732 E9.42332
G1 X94.796 Y93.484 E9.43578
G1 X95.343 Y93.034 E9.45934
G1 X95.548 Y92.877 E9.46793
G1 X95.841 Y92.661 E9.48004
G1 X96.201 Y92.41 E9.49463
G1 X96.37 Y92.297 E9.50139
G1 X96.961 Y91.931 E9.52452
G1 X97.264 Y91.757 E9.53614
G1 X97.651 Y91.545 E9.55081
G1 X97.844 Y91.445 E9.55804
G1 X98.344 Y91.203 E9.57652
G1 X98.537 Y91.116 E9.58356
G1 X98.862 Y90.976 E9.59533
G1 X99.303 Y90.8 E9.61112
G1 X99.895 Y90.589 E9.63203
G1 X100.162 Y90.503 E9.64135
G1 X100.948 Y90.284 E9.66849
G1 X101.495 Y90.155 E9.68719
G1 X102.449 Y89.978 E9.71946
G1 X102.755 Y89.936 E9.72973
G1 X103.237 Y89.881 E9.74587
G1 X103.484 Y89.859 E9.75411
G1 X104.006 Y89.826 E9.77151
G1 X104.272 Y89.816 E9.78036
G1 X104.924 Y89.813 E9.80205
G1 X105.227 Y89.821 E9.81213
G1 X105.685 Y89.843 E9.82738
G1 X105.867 Y89.856 E9.83345
G1 X106.148 Y89.88 E9.84283
G1 X106.371 Y89.902 E9.85028
G1 X108.987 Y90.123 E9.9376
G1 X111.53 Y90.266 E10.02232
G1 X114.064 Y90.337 E10.10663
G1 X116.598 Y90.337 E10.19091
G1 X119.162 Y90.264 E10.27622
G1 X121.663 Y90.121 E10.35954
G1 X124.414 Y89.878 E10.4514
G1 X124.879 Y89.844 E10.46691
G1 X125.133 Y89.83 E10.47537
G1 X125.45 Y89.818 E10.48592
G1 X125.659 Y89.813 E10.49287
G1 X126.073 Y89.811 E10.50664
G1 X126.253 Y89.814 E10.51263
G1 X126.672 Y89.83 E10.52658
G1 X126.914 Y89.844 E10.53464
G1 X127.597 Y89.907 E10.55745
G1 X127.947 Y89.951 E10.56918
G1 X128.441 Y90.025 E10.5858
G1 X128.714 Y90.073 E10.59502
G1 X129.335 Y90.202 E10.61611
G1 X129.551 Y90.254 E10.6235
G1 X130.001 Y90.374 E10.63899
G1 X130.26 Y90.449 E10.64796
G1 X130.787 Y90.617 E10.66636
G1 X131.168 Y90.753 E10.67981
G1 X131.404 Y90.842 E10.6882
G1 X132.028 Y91.101 E10.71067
G1 X132.316 Y91.232 E10.7212
G1 X132.847 Y91.493 E10.74087
G1 X133.145 Y91.65 E10.75208
G1 X133.571 Y91.887 E10.76829
G1 X133.909 Y92.091 E10.78142
G1 X134.089 Y92.204 E10.78849
G1 X134.558 Y92.517 E10.80725
G1 X134.94 Y92.791 E10.82288
G1 X135.094 Y92.906 E10.82927
G1 X135.573 Y93.287 E10.84963
G1 X135.779 Y93.461 E10.8586
G1 X136.167 Y93.806 E10.87587
G1 X136.401 Y94.025 E10.88653
G1 X136.802 Y94.422 E10.9053
G1 X136.978 Y94.606 E10.91376
G1 X137.27 Y94.923 E10.9281
G1 X137.597 Y95.305 E10.94482
G1 X137.733 Y95.472 E10.95199
G1 X138.005 Y95.821 E10.9667
G1 X138.142 Y96.005 E10.97433
G1 X138.403 Y96.373 E10.98934
G1 X138.542 Y96.578 E10.99758
G1 X138.849 Y97.058 E11.01653
G1 X139.03 Y97.36 E11.02824
G1 X139.46 Y98.155 E11.0583
G1 X139.962 Y99.39 E11.10264
G1 X140.209 Y100.259 E11.13269
G1 X140.379 Y101.146 E11.16273
G1 X140.469 Y102.045 E11.19278
G1 X140.485 Y102.708 E11.21484
G1 X140.461 Y105.322 E11.30178
G1 X140.475 Y106.014 E11.3248
G1 X140.485 Y107.286 E11.36711
G1 X140.452 Y108.188 E11.39713
G1 X140.339 Y109.084 E11.42717
G1 X140.148 Y109.967 E11.45722
