;FLAVOR:Marlin
;TIME:344
;Filament used: 0.209557m
;Layer height: 0.2
;MINX:94.013
;MINY:84.019
;MINZ:0.2
;MAXX:135.975
;MAXY:125.987
;MAXZ:3
;Generated with Cura_SteamEngine master
M140 S50
M105
M190 S50
M104 S200
M105
M109 S200
M82 ;absolute extrusion mode
;posicionamiento absoluto

G90

;establecer el extrusor en modo absoluto

M82

;Apaga el fan de capa 

M107

;lleva el eje al inicio

G28

;Se mueve a esa posición

G1 X5 Y5 Z15 F3000

G1 Z15.0 F9000

;El eje E esta en cero

G92 E0

;extruye 10mm

G1 F200 E10

G92 E0

;Guardad esa velocidad

G1 F9000

;imprime en el LCD

M117 Imprimiendo...
G92 E0
G92 E0
G1 F2700 E-5
;LAYER_COUNT:15
;LAYER:0
M107
G0 F6000 X99.542 Y90.803 Z0.2
;TYPE:SKIRT
G1 F2700 E0
G1 F1200 X99.838 Y90.489 E0.01435
G1 X99.981 Y90.342 E0.02117
G1 X100.214 Y90.11 E0.03211
G1 X100.657 Y89.681 E0.05262
G1 X101.075 Y89.296 E0.07152
G1 X101.256 Y89.138 E0.07951
G1 X101.588 Y88.859 E0.09394
G1 X101.785 Y88.7 E0.10236
G1 X102.329 Y88.272 E0.12538
G1 X102.832 Y87.899 E0.14621
G1 X103.031 Y87.76 E0.15428
G1 X103.348 Y87.546 E0.167
G1 X103.564 Y87.407 E0.17554
G1 X104.148 Y87.039 E0.1985
G1 X104.694 Y86.716 E0.2196
G1 X105.072 Y86.51 E0.23392
G1 X105.253 Y86.415 E0.24072
G1 X105.514 Y86.282 E0.25046
G1 X106.09 Y85.999 E0.27181
G1 X106.672 Y85.734 E0.29308
G1 X107.126 Y85.546 E0.30942
G1 X107.513 Y85.397 E0.32321
G1 X108.098 Y85.181 E0.34396
G1 X108.673 Y84.986 E0.36415
G1 X109.103 Y84.858 E0.37907
G1 X109.405 Y84.774 E0.3895
G1 X109.685 Y84.7 E0.39913
G1 X110.265 Y84.555 E0.41901
G1 X110.861 Y84.424 E0.43931
G1 X111.295 Y84.343 E0.45399
G1 X111.733 Y84.272 E0.46875
G1 X112.401 Y84.176 E0.4912
G1 X112.986 Y84.108 E0.51079
G1 X113.176 Y84.091 E0.51713
G1 X113.504 Y84.066 E0.52807
G1 X113.944 Y84.043 E0.54273
G1 X114.581 Y84.019 E0.56393
G1 X115.519 Y84.023 E0.59513
G1 X116.453 Y84.108 E0.62632
G1 X117.376 Y84.272 E0.6575
G1 X118.282 Y84.514 E0.68869
G1 X119.165 Y84.832 E0.71991
G1 X120.017 Y85.224 E0.7511
G1 X120.832 Y85.687 E0.78227
G1 X121.605 Y86.218 E0.81347
G1 X122.33 Y86.814 E0.84468
G1 X123.159 Y87.639 E0.88358
G1 X123.882 Y88.442 E0.91952
G1 X124.316 Y88.939 E0.94147
G1 X126.064 Y90.83 E1.02712
G1 X127.803 Y92.607 E1.10981
G1 X129.593 Y94.338 E1.19263
G1 X131.85 Y96.389 E1.29407
G1 X132.234 Y96.726 E1.31106
G1 X132.913 Y97.374 E1.34228
G1 X133.533 Y98.078 E1.37348
G1 X134.091 Y98.831 E1.40465
G1 X134.583 Y99.63 E1.43586
G1 X135.005 Y100.467 E1.46703
G1 X135.355 Y101.338 E1.49826
G1 X135.629 Y102.234 E1.52942
G1 X135.825 Y103.152 E1.56064
G1 X135.943 Y104.082 E1.59182
G1 X135.975 Y105.354 E1.63414
G1 X135.952 Y106.06 E1.65763
G1 X135.935 Y106.418 E1.66955
G1 X135.914 Y106.74 E1.68029
G1 X135.858 Y107.339 E1.7003
G1 X135.835 Y107.53 E1.7067
G1 X135.798 Y107.808 E1.71602
G1 X135.762 Y108.054 E1.72429
G1 X135.72 Y108.318 E1.73318
G1 X135.614 Y108.937 E1.75407
G1 X135.457 Y109.694 E1.77978
G1 X135.366 Y110.066 E1.79252
G1 X135.268 Y110.439 E1.80535
G1 X135.088 Y111.077 E1.8274
G1 X134.91 Y111.646 E1.84723
G1 X134.855 Y111.807 E1.85289
G1 X134.746 Y112.113 E1.86369
G1 X134.584 Y112.538 E1.87882
G1 X134.35 Y113.124 E1.8998
G1 X134.091 Y113.721 E1.92145
G1 X133.975 Y113.968 E1.93053
G1 X133.79 Y114.346 E1.94452
G1 X133.676 Y114.568 E1.95282
G1 X133.398 Y115.097 E1.9727
G1 X133.078 Y115.666 E1.99441
G1 X132.95 Y115.878 E2.00265
G1 X132.713 Y116.255 E2.01746
G1 X132.58 Y116.459 E2.02556
G1 X132.236 Y116.973 E2.04613
G1 X131.894 Y117.455 E2.06579
G1 X131.753 Y117.643 E2.0736
G1 X131.566 Y117.885 E2.08378
G1 X131.454 Y118.026 E2.08976
G1 X131.276 Y118.244 E2.09912
G1 X130.855 Y118.747 E2.12094
G1 X130.481 Y119.172 E2.13977
G1 X130.173 Y119.5 E2.15474
G1 X130.044 Y119.633 E2.1609
G1 X129.804 Y119.872 E2.17216
G1 X129.347 Y120.315 E2.19333
G1 X128.925 Y120.704 E2.21242
G1 X128.744 Y120.862 E2.22041
G1 X128.412 Y121.141 E2.23484
G1 X128.215 Y121.3 E2.24326
G1 X127.671 Y121.728 E2.26628
G1 X127.168 Y122.101 E2.28711
G1 X126.795 Y122.359 E2.30219
G1 X126.439 Y122.592 E2.31634
G1 X125.848 Y122.964 E2.33957
G1 X125.306 Y123.284 E2.3605
G1 X124.928 Y123.49 E2.37482
G1 X124.747 Y123.585 E2.38162
G1 X124.486 Y123.718 E2.39136
G1 X123.91 Y124.001 E2.41271
G1 X123.328 Y124.266 E2.43398
G1 X122.874 Y124.454 E2.45032
G1 X122.487 Y124.603 E2.46412
G1 X121.902 Y124.819 E2.48486
G1 X121.327 Y125.014 E2.50505
G1 X120.897 Y125.142 E2.51997
G1 X120.595 Y125.226 E2.5304
G1 X120.315 Y125.3 E2.54003
G1 X119.735 Y125.445 E2.55992
G1 X119.139 Y125.576 E2.58021
G1 X118.705 Y125.657 E2.5949
G1 X118.267 Y125.728 E2.60965
G1 X117.599 Y125.824 E2.6321
G1 X117.014 Y125.892 E2.65169
G1 X116.824 Y125.909 E2.65803
G1 X116.496 Y125.934 E2.66897
G1 X116.047 Y125.958 E2.68393
G1 X115.396 Y125.982 E2.7056
G1 X114.795 Y125.987 E2.72559
G1 X114.331 Y125.976 E2.74102
G1 X113.861 Y125.954 E2.75667
G1 X113.243 Y125.913 E2.77727
G1 X112.607 Y125.852 E2.79852
G1 X112.143 Y125.791 E2.81409
G1 X111.668 Y125.718 E2.83007
G1 X111.048 Y125.611 E2.851
G1 X110.4 Y125.479 E2.87299
G1 X109.947 Y125.369 E2.8885
G1 X109.558 Y125.266 E2.90188
G1 X108.917 Y125.085 E2.92404
G1 X108.367 Y124.914 E2.94319
G1 X108.211 Y124.861 E2.94867
G1 X107.903 Y124.751 E2.95955
G1 X107.678 Y124.667 E2.96754
G1 X107.407 Y124.562 E2.97721
G1 X106.815 Y124.323 E2.99844
G1 X106.264 Y124.083 E3.01843
G1 X105.814 Y123.869 E3.035
G1 X105.426 Y123.673 E3.04946
G1 X104.896 Y123.394 E3.06938
G1 X104.367 Y123.096 E3.08958
G1 X103.922 Y122.826 E3.10689
G1 X103.772 Y122.731 E3.11279
G1 X103.532 Y122.574 E3.12233
G1 X103.01 Y122.224 E3.14323
G1 X102.512 Y121.87 E3.16356
G1 X102.333 Y121.735 E3.17101
G1 X101.966 Y121.447 E3.18653
G1 X101.756 Y121.277 E3.19552
G1 X101.254 Y120.857 E3.21729
G1 X100.828 Y120.481 E3.23618
G1 X100.674 Y120.338 E3.24317
G1 X100.351 Y120.027 E3.25809
G1 X100.117 Y119.793 E3.26909
G1 X99.682 Y119.344 E3.28989
G1 X99.279 Y118.906 E3.30968
G1 X99.113 Y118.715 E3.3181
G1 X98.87 Y118.425 E3.33068
G1 X98.699 Y118.214 E3.33972
G1 X98.271 Y117.67 E3.36274
G1 X97.892 Y117.158 E3.38393
G1 X97.611 Y116.75 E3.4004
G1 X97.407 Y116.436 E3.41286
G1 X97.039 Y115.852 E3.43582
G1 X96.716 Y115.306 E3.45692
G1 X96.51 Y114.928 E3.47123
G1 X96.415 Y114.747 E3.47803
G1 X96.282 Y114.486 E3.48778
G1 X95.999 Y113.91 E3.50912
G1 X95.734 Y113.328 E3.53039
G1 X95.546 Y112.874 E3.54673
G1 X95.401 Y112.497 E3.56017
G1 X95.184 Y111.911 E3.58095
G1 X94.971 Y111.279 E3.60314
G1 X94.861 Y110.906 E3.61607
G1 X94.777 Y110.605 E3.62646
G1 X94.695 Y110.295 E3.63713
G1 X94.544 Y109.686 E3.658
G1 X94.398 Y109.004 E3.68119
G1 X94.337 Y108.668 E3.69255
G1 X94.271 Y108.263 E3.7062
G1 X94.175 Y107.593 E3.72871
G1 X94.108 Y107.018 E3.74797
G1 X94.091 Y106.829 E3.75428
G1 X94.066 Y106.496 E3.76538
G1 X94.042 Y106.047 E3.78034
G1 X94.018 Y105.396 E3.80201
G1 X94.013 Y104.795 E3.822
G1 X94.023 Y104.346 E3.83693
G1 X94.03 Y104.163 E3.84303
G1 X94.048 Y103.824 E3.85432
G1 X94.092 Y103.188 E3.87552
G1 X94.153 Y102.569 E3.89621
G1 X94.208 Y102.15 E3.91026
G1 X94.281 Y101.673 E3.92631
G1 X94.387 Y101.057 E3.9471
G1 X94.524 Y100.389 E3.96978
G1 X94.629 Y99.953 E3.9847
G1 X94.739 Y99.54 E3.99891
G1 X94.917 Y98.911 E4.02066
G1 X95.091 Y98.351 E4.04016
G1 X95.147 Y98.187 E4.04592
G1 X95.252 Y97.895 E4.05625
G1 X95.434 Y97.415 E4.07332
G1 X95.668 Y96.834 E4.09415
G1 X95.902 Y96.297 E4.11363
G1 X96.012 Y96.061 E4.1223
G1 X96.131 Y95.813 E4.13144
G1 X96.327 Y95.426 E4.14587
G1 X96.607 Y94.894 E4.16587
G1 X96.921 Y94.338 E4.18711
G1 X97.194 Y93.891 E4.20453
G1 X97.43 Y93.527 E4.21896
G1 X97.77 Y93.019 E4.23929
G1 X98.134 Y92.506 E4.26021
G1 X98.27 Y92.326 E4.26771
G1 X98.553 Y91.966 E4.28294
G1 X98.719 Y91.761 E4.29172
G1 X99.141 Y91.256 E4.3136
G1 X99.542 Y90.803 E4.33373
G0 F6000 X99.835 Y91.076
G1 F1200 X100.125 Y90.768 E4.3478
G1 X100.268 Y90.621 E4.35462
G1 X100.492 Y90.397 E4.36515
G1 X100.935 Y89.968 E4.38566
G1 X101.338 Y89.597 E4.40388
G1 X101.519 Y89.439 E4.41187
G1 X101.843 Y89.167 E4.42594
G1 X102.033 Y89.014 E4.43406
G1 X102.577 Y88.586 E4.45708
G1 X103.061 Y88.227 E4.47712
G1 X103.471 Y87.944 E4.49369
G1 X103.777 Y87.745 E4.50583
G1 X104.361 Y87.377 E4.52879
G1 X104.887 Y87.066 E4.54912
G1 X105.258 Y86.864 E4.56317
G1 X105.439 Y86.769 E4.56997
G1 X105.691 Y86.641 E4.57937
G1 X106.267 Y86.358 E4.60071
G1 X106.828 Y86.103 E4.62121
G1 X107.272 Y85.919 E4.63719
G1 X107.651 Y85.772 E4.65071
G1 X108.236 Y85.556 E4.67145
G1 X108.791 Y85.369 E4.69093
G1 X109.21 Y85.244 E4.70548
G1 X109.512 Y85.16 E4.7159
G1 X109.782 Y85.088 E4.7252
G1 X110.362 Y84.943 E4.74508
G1 X110.937 Y84.817 E4.76466
G1 X111.363 Y84.737 E4.77908
G1 X111.79 Y84.668 E4.79346
G1 X112.458 Y84.572 E4.81591
G1 X113.021 Y84.506 E4.83476
G1 X113.211 Y84.489 E4.84111
G1 X113.527 Y84.466 E4.85164
G1 X113.959 Y84.443 E4.86603
G1 X114.596 Y84.419 E4.88723
G1 X115.517 Y84.424 E4.91787
G1 X116.433 Y84.509 E4.94846
G1 X117.339 Y84.673 E4.97909
G1 X118.227 Y84.916 E5.00971
G1 X119.091 Y85.234 E5.04033
G1 X119.924 Y85.627 E5.07096
G1 X120.72 Y86.09 E5.10159
G1 X121.472 Y86.62 E5.13219
G1 X122.176 Y87.214 E5.16283
G1 X122.862 Y87.907 E5.19526
G1 X123.581 Y88.705 E5.23099
G1 X124.042 Y89.232 E5.25427
G1 X125.767 Y91.099 E5.33882
G1 X127.504 Y92.874 E5.42142
G1 X129.337 Y94.646 E5.50622
G1 X131.572 Y96.677 E5.60666
G1 X131.971 Y97.027 E5.62431
G1 X132.636 Y97.664 E5.65494
G1 X133.243 Y98.356 E5.68556
G1 X133.788 Y99.097 E5.71615
G1 X134.267 Y99.884 E5.7468
G1 X134.675 Y100.709 E5.77741
G1 X135.011 Y101.566 E5.80802
G1 X135.271 Y102.45 E5.83867
G1 X135.453 Y103.352 E5.86928
G1 X135.556 Y104.267 E5.8999
G1 X135.575 Y105.341 E5.93563
G1 X135.552 Y106.047 E5.95912
G1 X135.536 Y106.392 E5.97061
G1 X135.515 Y106.714 E5.98134
G1 X135.461 Y107.291 E6.00062
G1 X135.438 Y107.482 E6.00702
G1 X135.402 Y107.75 E6.01601
G1 X135.326 Y108.25 E6.03283
G1 X135.22 Y108.869 E6.05372
G1 X135.068 Y109.599 E6.07852
G1 X134.977 Y109.971 E6.09126
G1 X134.883 Y110.33 E6.1036
G1 X134.703 Y110.968 E6.12565
G1 X134.532 Y111.517 E6.14477
G1 X134.477 Y111.678 E6.15043
G1 X134.371 Y111.973 E6.16086
G1 X134.212 Y112.39 E6.1757
G1 X133.978 Y112.976 E6.19669
G1 X133.729 Y113.551 E6.21753
G1 X133.613 Y113.798 E6.2266
G1 X133.432 Y114.168 E6.2403
G1 X133.322 Y114.382 E6.24831
G1 X133.044 Y114.911 E6.26818
G1 X132.735 Y115.459 E6.28911
G1 X132.471 Y115.891 E6.30595
G1 X132.247 Y116.237 E6.31966
G1 X131.903 Y116.751 E6.34023
G1 X131.574 Y117.215 E6.35915
G1 X131.433 Y117.403 E6.36696
G1 X131.253 Y117.636 E6.37675
G1 X130.97 Y117.987 E6.39175
G1 X130.549 Y118.49 E6.41357
G1 X130.188 Y118.9 E6.43174
G1 X129.886 Y119.221 E6.4464
G1 X129.757 Y119.354 E6.45256
G1 X129.526 Y119.585 E6.46342
G1 X129.069 Y120.028 E6.48459
G1 X128.662 Y120.403 E6.503
G1 X128.481 Y120.561 E6.51099
G1 X128.157 Y120.833 E6.52506
G1 X127.967 Y120.986 E6.53317
G1 X127.423 Y121.414 E6.5562
G1 X126.939 Y121.773 E6.57624
G1 X126.572 Y122.027 E6.59108
G1 X126.226 Y122.254 E6.60485
G1 X125.635 Y122.626 E6.62807
G1 X125.113 Y122.934 E6.64823
G1 X124.742 Y123.136 E6.66228
G1 X124.561 Y123.231 E6.66908
G1 X124.309 Y123.359 E6.67848
G1 X123.733 Y123.642 E6.69983
G1 X123.172 Y123.897 E6.72032
G1 X122.728 Y124.081 E6.73631
G1 X122.349 Y124.228 E6.74983
G1 X121.764 Y124.444 E6.77057
G1 X121.209 Y124.631 E6.79005
G1 X120.79 Y124.756 E6.80459
G1 X120.488 Y124.84 E6.81502
G1 X120.218 Y124.912 E6.82431
G1 X119.638 Y125.057 E6.8442
G1 X119.063 Y125.183 E6.86378
G1 X118.637 Y125.263 E6.87819
G1 X118.21 Y125.332 E6.89258
G1 X117.542 Y125.428 E6.91502
G1 X116.979 Y125.494 E6.93388
G1 X116.789 Y125.511 E6.94022
G1 X116.473 Y125.534 E6.95076
G1 X116.033 Y125.558 E6.96542
G1 X115.382 Y125.582 E6.98708
G1 X114.803 Y125.587 E7.00634
G1 X114.347 Y125.577 E7.02151
G1 X114.17 Y125.57 E7.0274
G1 X113.887 Y125.555 E7.03683
G1 X113.269 Y125.514 E7.05743
G1 X112.656 Y125.455 E7.07791
G1 X112.202 Y125.396 E7.09314
G1 X111.736 Y125.324 E7.10882
G1 X111.116 Y125.217 E7.12975
G1 X110.491 Y125.089 E7.15097
G1 X110.047 Y124.982 E7.16616
G1 X109.666 Y124.881 E7.17927
G1 X109.025 Y124.7 E7.20142
G1 X108.496 Y124.536 E7.21984
G1 X108.34 Y124.483 E7.22532
G1 X108.043 Y124.377 E7.23581
G1 X107.818 Y124.293 E7.2438
G1 X107.557 Y124.191 E7.25312
G1 X106.965 Y123.952 E7.27435
G1 X106.434 Y123.721 E7.29361
G1 X105.992 Y123.511 E7.30989
G1 X105.612 Y123.319 E7.32405
G1 X105.082 Y123.04 E7.34397
G1 X104.573 Y122.753 E7.36341
G1 X104.136 Y122.488 E7.3804
G1 X103.986 Y122.393 E7.38631
G1 X103.755 Y122.242 E7.39549
G1 X103.233 Y121.892 E7.41639
G1 X102.753 Y121.551 E7.43598
G1 X102.574 Y121.416 E7.44343
G1 X102.215 Y121.134 E7.45862
G1 X102.013 Y120.97 E7.46727
G1 X101.511 Y120.55 E7.48904
G1 X101.1 Y120.188 E7.50726
G1 X100.771 Y119.879 E7.52227
G1 X100.629 Y119.741 E7.52885
G1 X100.404 Y119.515 E7.53946
G1 X99.969 Y119.066 E7.56025
G1 X99.581 Y118.643 E7.57935
G1 X99.415 Y118.452 E7.58776
G1 X99.178 Y118.17 E7.60001
G1 X99.013 Y117.966 E7.60874
G1 X98.585 Y117.422 E7.63176
G1 X98.22 Y116.929 E7.65216
G1 X97.944 Y116.529 E7.66833
G1 X97.745 Y116.223 E7.68047
G1 X97.377 Y115.639 E7.70343
G1 X97.066 Y115.113 E7.72375
G1 X96.864 Y114.742 E7.7378
G1 X96.769 Y114.561 E7.7446
G1 X96.641 Y114.309 E7.754
G1 X96.358 Y113.733 E7.77535
G1 X96.103 Y113.172 E7.79584
G1 X95.919 Y112.728 E7.81183
G1 X95.776 Y112.358 E7.82502
G1 X95.559 Y111.772 E7.84581
G1 X95.354 Y111.163 E7.86718
G1 X95.246 Y110.798 E7.87984
G1 X95.162 Y110.497 E7.89023
G1 X95.084 Y110.199 E7.90048
G1 X94.933 Y109.59 E7.92135
G1 X94.791 Y108.932 E7.94373
G1 X94.73 Y108.596 E7.95509
G1 X94.667 Y108.206 E7.96823
G1 X94.571 Y107.536 E7.99074
G1 X94.507 Y106.983 E8.00926
G1 X94.49 Y106.794 E8.01557
G1 X94.466 Y106.473 E8.02628
G1 X94.442 Y106.033 E8.04093
G1 X94.418 Y105.382 E8.0626
G1 X94.413 Y104.803 E8.08186
G1 X94.423 Y104.361 E8.09656
G1 X94.43 Y104.178 E8.10266
G1 X94.447 Y103.851 E8.11355
G1 X94.491 Y103.215 E8.13475
G1 X94.549 Y102.619 E8.15467
G1 X94.604 Y102.208 E8.16846
G1 X94.635 Y101.997 E8.17555
G1 X94.676 Y101.74 E8.18421
G1 X94.782 Y101.124 E8.205
G1 X94.913 Y100.481 E8.22682
G1 X95.016 Y100.053 E8.24146
G1 X95.124 Y99.649 E8.25537
G1 X95.302 Y99.02 E8.27712
G1 X95.47 Y98.481 E8.29589
G1 X95.626 Y98.035 E8.31161
G1 X95.707 Y97.818 E8.31931
G1 X95.806 Y97.565 E8.32835
G1 X96.04 Y96.984 E8.34918
G1 X96.264 Y96.466 E8.36795
G1 X96.374 Y96.23 E8.37661
G1 X96.568 Y95.832 E8.39134
G1 X96.681 Y95.612 E8.39956
G1 X96.961 Y95.08 E8.41956
G1 X97.263 Y94.544 E8.44002
G1 X97.389 Y94.335 E8.44814
G1 X97.531 Y94.106 E8.4571
G1 X97.762 Y93.749 E8.47124
G1 X98.102 Y93.241 E8.49158
G1 X98.454 Y92.747 E8.51175
G1 X98.59 Y92.567 E8.51925
G1 X98.866 Y92.215 E8.53413
G1 X99.026 Y92.018 E8.54257
G1 X99.448 Y91.513 E8.56446
G1 X99.835 Y91.076 E8.58388
G0 F6000 X100.127 Y91.349
G1 F1200 X100.412 Y91.047 E8.59769
G1 X100.555 Y90.9 E8.60451
G1 X100.77 Y90.685 E8.61462
G1 X101.213 Y90.256 E8.63513
G1 X101.601 Y89.899 E8.65267
G1 X101.782 Y89.741 E8.66066
G1 X102.097 Y89.476 E8.67435
G1 X102.28 Y89.329 E8.68216
G1 X102.824 Y88.901 E8.70518
G1 X103.29 Y88.555 E8.72448
G1 X103.692 Y88.278 E8.74072
G1 X103.99 Y88.083 E8.75257
G1 X104.574 Y87.715 E8.77553
G1 X105.08 Y87.416 E8.79507
G1 X105.444 Y87.218 E8.80886
G1 X105.625 Y87.123 E8.81565
G1 X105.867 Y87 E8.82468
G1 X106.443 Y86.717 E8.84603
G1 X106.983 Y86.471 E8.86576
G1 X107.419 Y86.291 E8.88145
G1 X107.79 Y86.147 E8.89469
G1 X108.375 Y85.931 E8.91543
G1 X108.908 Y85.751 E8.93414
G1 X109.318 Y85.629 E8.94837
G1 X109.62 Y85.545 E8.9588
G1 X109.879 Y85.477 E8.9677
G1 X110.459 Y85.332 E8.98759
G1 X111.012 Y85.21 E9.00642
G1 X111.43 Y85.131 E9.02057
G1 X111.576 Y85.106 E9.0255
G1 X111.847 Y85.064 E9.03462
G1 X112.515 Y84.968 E9.05706
G1 X113.057 Y84.905 E9.07521
G1 X113.247 Y84.888 E9.08156
G1 X113.551 Y84.865 E9.0917
G1 X113.974 Y84.842 E9.10579
G1 X114.611 Y84.818 E9.12699
G1 X115.514 Y84.824 E9.15702
G1 X116.413 Y84.91 E9.18706
G1 X117.301 Y85.075 E9.2171
G1 X118.171 Y85.318 E9.24715
G1 X119.016 Y85.637 E9.27719
G1 X119.829 Y86.029 E9.30721
G1 X120.605 Y86.492 E9.33726
G1 X121.336 Y87.022 E9.36729
G1 X122.018 Y87.614 E9.39733
G1 X122.565 Y88.175 E9.42339
G1 X123.28 Y88.969 E9.45893
G1 X123.723 Y89.476 E9.48132
G1 X125.47 Y91.367 E9.56695
G1 X127.241 Y93.176 E9.65115
