;FLAVOR:Marlin
;TIME:177
;Filament used: 0.0845114m
;Layer height: 0.2
;MINX:99.013
;MINY:89.013
;MINZ:0.2
;MAXX:130.987
;MAXY:120.987
;MAXZ:3.2
;Generated with Cura_SteamEngine master
M140 S50
M105
M190 S50
M104 S200
M105
M109 S200
M82 ;absolute extrusion mode
;posicionamiento absoluto

G90

;establecer el extrusor en modo absoluto

M82

;Apaga el fan de capa 

M107

;lleva el eje al inicio

G28

;Se mueve a esa posición

G1 X5 Y5 Z15 F3000

G1 Z15.0 F9000

;El eje E esta en cero

G92 E0

;extruye 10mm

G1 F200 E10

G92 E0

;Guardad esa velocidad

G1 F9000

;imprime en el LCD

M117 Imprimiendo...
G92 E0
G92 E0
G1 F2700 E-5
;LAYER_COUNT:16
;LAYER:0
M107
G0 F6000 X103.273 Y94.147 Z0.2
;TYPE:SKIRT
G1 F2700 E0
G1 F1200 X103.664 Y93.744 E0.01868
G1 X103.892 Y93.516 E0.0294
G1 X104.106 Y93.308 E0.03933
G1 X104.806 Y92.684 E0.07052
G1 X105.316 Y92.29 E0.09195
G1 X105.756 Y91.971 E0.11003
G1 X106.026 Y91.782 E0.12099
G1 X106.295 Y91.599 E0.13181
G1 X107.092 Y91.105 E0.163
G1 X107.669 Y90.803 E0.18466
G1 X108.156 Y90.566 E0.20267
G1 X108.462 Y90.423 E0.21391
G1 X108.767 Y90.286 E0.22503
G1 X109.638 Y89.938 E0.25622
G1 X110.263 Y89.74 E0.27803
G1 X110.755 Y89.6 E0.29504
G1 X111.032 Y89.525 E0.30459
G1 X111.375 Y89.437 E0.31636
G1 X112.293 Y89.243 E0.34757
G1 X112.983 Y89.15 E0.37073
G1 X113.527 Y89.094 E0.38892
G1 X113.835 Y89.066 E0.3992
G1 X114.157 Y89.042 E0.40994
G1 X115.095 Y89.013 E0.44116
G1 X115.762 Y89.04 E0.46336
G1 X116.306 Y89.079 E0.4815
G1 X116.617 Y89.106 E0.49188
G1 X116.936 Y89.138 E0.50255
G1 X117.864 Y89.271 E0.53373
G1 X118.515 Y89.414 E0.55589
G1 X119.073 Y89.554 E0.57503
G1 X119.361 Y89.63 E0.58494
G1 X119.654 Y89.712 E0.59506
G1 X120.545 Y90.003 E0.62623
G1 X121.202 Y90.273 E0.64986
G1 X121.671 Y90.484 E0.66696
G1 X121.909 Y90.595 E0.6757
G1 X122.216 Y90.742 E0.68702
G1 X123.043 Y91.182 E0.71817
G1 X123.635 Y91.556 E0.74146
G1 X124.094 Y91.867 E0.7599
G1 X124.358 Y92.052 E0.77063
G1 X124.627 Y92.246 E0.78166
G1 X125.364 Y92.827 E0.81287
G1 X125.85 Y93.27 E0.83474
G1 X126.243 Y93.651 E0.85295
G1 X126.469 Y93.877 E0.86358
G1 X126.687 Y94.101 E0.87398
G1 X127.312 Y94.801 E0.90519
G1 X127.71 Y95.316 E0.92683
G1 X128.029 Y95.756 E0.94491
G1 X128.218 Y96.026 E0.95587
G1 X128.401 Y96.295 E0.96669
G1 X128.895 Y97.092 E0.99788
G1 X129.197 Y97.669 E1.01954
G1 X129.434 Y98.156 E1.03756
G1 X129.577 Y98.462 E1.04879
G1 X129.714 Y98.767 E1.05991
G1 X130.062 Y99.638 E1.09111
G1 X130.258 Y100.258 E1.11273
G1 X130.394 Y100.735 E1.12923
G1 X130.47 Y101.013 E1.13882
G1 X130.562 Y101.371 E1.15111
G1 X130.756 Y102.289 E1.18232
G1 X130.85 Y102.983 E1.20561
G1 X130.906 Y103.527 E1.2238
G1 X130.933 Y103.83 E1.23392
G1 X130.957 Y104.15 E1.24459
G1 X130.987 Y105.088 E1.27581
G1 X130.961 Y105.743 E1.29761
G1 X130.924 Y106.27 E1.31518
G1 X130.896 Y106.601 E1.32623
G1 X130.862 Y106.939 E1.33753
G1 X130.728 Y107.867 E1.36871
G1 X130.586 Y108.515 E1.39078
G1 X130.446 Y109.073 E1.40991
G1 X130.367 Y109.37 E1.42013
G1 X130.285 Y109.662 E1.43022
G1 X129.994 Y110.553 E1.46139
G1 X129.734 Y111.184 E1.48409
G1 X129.528 Y111.644 E1.50086
G1 X129.408 Y111.904 E1.51038
G1 X129.256 Y112.221 E1.52207
G1 X128.815 Y113.049 E1.55328
G1 X128.444 Y113.635 E1.57634
G1 X128.133 Y114.094 E1.59479
G1 X127.948 Y114.358 E1.60551
G1 X127.754 Y114.627 E1.61654
G1 X127.173 Y115.364 E1.64775
G1 X126.731 Y115.848 E1.66955
G1 X126.355 Y116.236 E1.68752
G1 X126.13 Y116.462 E1.69813
G1 X125.901 Y116.685 E1.70876
G1 X125.202 Y117.31 E1.73995
G1 X124.684 Y117.71 E1.76172
G1 X124.244 Y118.029 E1.77979
G1 X123.974 Y118.218 E1.79075
G1 X123.705 Y118.401 E1.80157
G1 X122.908 Y118.895 E1.83276
G1 X122.331 Y119.197 E1.85442
G1 X121.844 Y119.434 E1.87244
G1 X121.526 Y119.583 E1.88412
G1 X121.22 Y119.72 E1.89527
G1 X120.348 Y120.066 E1.92647
G1 X119.741 Y120.258 E1.94765
G1 X119.25 Y120.398 E1.96463
G1 X118.968 Y120.475 E1.97435
G1 X118.625 Y120.563 E1.98613
G1 X117.707 Y120.757 E2.01733
G1 X117.017 Y120.85 E2.04049
G1 X116.473 Y120.906 E2.05868
G1 X116.165 Y120.934 E2.06897
G1 X115.843 Y120.958 E2.07971
G1 X114.905 Y120.987 E2.11092
G1 X114.238 Y120.96 E2.13312
G1 X113.694 Y120.921 E2.15126
G1 X113.383 Y120.894 E2.16164
G1 X113.064 Y120.862 E2.17231
G1 X112.136 Y120.729 E2.20349
G1 X111.485 Y120.586 E2.22566
G1 X110.927 Y120.446 E2.24479
G1 X110.639 Y120.37 E2.2547
G1 X110.346 Y120.288 E2.26482
G1 X109.455 Y119.997 E2.29599
G1 X108.798 Y119.727 E2.31962
G1 X108.329 Y119.516 E2.33672
G1 X108.091 Y119.405 E2.34546
G1 X107.784 Y119.258 E2.35678
G1 X106.957 Y118.818 E2.38794
G1 X106.365 Y118.444 E2.41123
G1 X105.906 Y118.133 E2.42967
G1 X105.642 Y117.948 E2.44039
G1 X105.373 Y117.754 E2.45142
G1 X104.636 Y117.173 E2.48263
G1 X104.15 Y116.73 E2.50451
G1 X103.757 Y116.349 E2.52271
G1 X103.531 Y116.123 E2.53334
G1 X103.313 Y115.899 E2.54374
G1 X102.688 Y115.199 E2.57495
G1 X102.29 Y114.684 E2.5966
G1 X101.971 Y114.244 E2.61467
G1 X101.782 Y113.974 E2.62564
G1 X101.599 Y113.705 E2.63646
G1 X101.105 Y112.908 E2.66764
G1 X100.807 Y112.34 E2.68898
G1 X100.568 Y111.85 E2.70711
G1 X100.413 Y111.517 E2.71933
G1 X100.278 Y111.215 E2.73033
G1 X99.932 Y110.343 E2.76153
G1 X99.74 Y109.737 E2.78268
G1 X99.6 Y109.245 E2.79969
G1 X99.525 Y108.968 E2.80923
G1 X99.437 Y108.625 E2.82101
G1 X99.243 Y107.707 E2.85222
G1 X99.15 Y107.017 E2.87538
G1 X99.093 Y106.463 E2.8939
G1 X99.065 Y106.151 E2.90432
G1 X99.042 Y105.841 E2.91466
G1 X99.013 Y104.903 E2.94587
G1 X99.039 Y104.255 E2.96744
G1 X99.078 Y103.701 E2.98591
G1 X99.109 Y103.347 E2.99773
G1 X99.141 Y103.036 E3.00813
G1 X99.276 Y102.108 E3.03932
G1 X99.417 Y101.472 E3.06099
G1 X99.559 Y100.909 E3.0803
G1 X99.636 Y100.621 E3.09021
G1 X99.717 Y100.333 E3.10016
G1 X100.009 Y99.442 E3.13135
G1 X100.263 Y98.824 E3.15357
G1 X100.473 Y98.354 E3.17069
G1 X100.607 Y98.064 E3.18132
G1 X100.755 Y97.757 E3.19266
G1 X101.198 Y96.93 E3.22386
G1 X101.555 Y96.368 E3.246
G1 X101.865 Y95.91 E3.2644
G1 X102.052 Y95.642 E3.27527
G1 X102.246 Y95.373 E3.2863
G1 X102.827 Y94.636 E3.31751
G1 X103.273 Y94.147 E3.33953
G0 F6000 X103.56 Y94.426
G1 F1200 X103.951 Y94.023 E3.3582
G1 X104.171 Y93.803 E3.36855
G1 X104.385 Y93.595 E3.37847
G1 X105.072 Y92.982 E3.4091
G1 X105.551 Y92.614 E3.42919
G1 X105.991 Y92.295 E3.44726
G1 X106.251 Y92.113 E3.45782
G1 X106.52 Y91.93 E3.46864
G1 X107.303 Y91.445 E3.49928
G1 X107.844 Y91.163 E3.51957
G1 X108.331 Y90.926 E3.53758
G1 X108.626 Y90.788 E3.54841
G1 X108.931 Y90.651 E3.55953
G1 X109.786 Y90.31 E3.59015
G1 X110.373 Y90.125 E3.61062
G1 X110.865 Y89.985 E3.62763
G1 X111.132 Y89.913 E3.63683
G1 X111.475 Y89.825 E3.64861
G1 X112.376 Y89.635 E3.67924
G1 X113.024 Y89.548 E3.70098
G1 X113.568 Y89.492 E3.71917
G1 X113.865 Y89.465 E3.72909
G1 X114.187 Y89.441 E3.73983
G1 X115.107 Y89.413 E3.77044
G1 X115.733 Y89.439 E3.79128
G1 X116.277 Y89.478 E3.80942
G1 X116.577 Y89.504 E3.81944
G1 X116.896 Y89.536 E3.8301
G1 X117.807 Y89.668 E3.86072
G1 X118.418 Y89.802 E3.88152
G1 X118.976 Y89.942 E3.90066
G1 X119.253 Y90.015 E3.91018
G1 X119.546 Y90.097 E3.9203
G1 X120.421 Y90.384 E3.95093
G1 X121.038 Y90.638 E3.97312
G1 X121.507 Y90.849 E3.99023
G1 X121.736 Y90.955 E3.99862
G1 X122.043 Y91.102 E4.00994
G1 X122.855 Y91.536 E4.04057
G1 X123.411 Y91.888 E4.06245
G1 X123.87 Y92.199 E4.08089
G1 X124.124 Y92.377 E4.09121
G1 X124.393 Y92.571 E4.10224
G1 X125.116 Y93.141 E4.13286
G1 X125.571 Y93.557 E4.15337
G1 X125.964 Y93.938 E4.17157
G1 X126.182 Y94.156 E4.18183
G1 X126.4 Y94.38 E4.19222
G1 X127.013 Y95.067 E4.22285
G1 X127.386 Y95.551 E4.24317
G1 X127.705 Y95.991 E4.26125
G1 X127.887 Y96.251 E4.2718
G1 X128.07 Y96.52 E4.28262
G1 X128.555 Y97.303 E4.31326
G1 X128.837 Y97.844 E4.33355
G1 X129.074 Y98.331 E4.35156
G1 X129.212 Y98.626 E4.36239
G1 X129.349 Y98.931 E4.37351
G1 X129.69 Y99.786 E4.40413
G1 X129.874 Y100.368 E4.42443
G1 X130.01 Y100.845 E4.44093
G1 X130.082 Y101.113 E4.45016
G1 X130.174 Y101.471 E4.46245
G1 X130.365 Y102.371 E4.49305
G1 X130.452 Y103.024 E4.51496
G1 X130.508 Y103.568 E4.53315
G1 X130.534 Y103.86 E4.5429
G1 X130.558 Y104.18 E4.55358
G1 X130.587 Y105.1 E4.58419
G1 X130.562 Y105.715 E4.60466
G1 X130.525 Y106.242 E4.62223
G1 X130.498 Y106.561 E4.63288
G1 X130.464 Y106.899 E4.64418
G1 X130.332 Y107.81 E4.6748
G1 X130.198 Y108.418 E4.69551
G1 X130.058 Y108.976 E4.71464
G1 X129.982 Y109.262 E4.72448
G1 X129.9 Y109.554 E4.73457
G1 X129.613 Y110.429 E4.7652
G1 X129.369 Y111.02 E4.78646
G1 X129.163 Y111.48 E4.80323
G1 X129.047 Y111.731 E4.81242
G1 X128.895 Y112.048 E4.82412
G1 X128.461 Y112.86 E4.85474
G1 X128.112 Y113.411 E4.87643
G1 X127.801 Y113.87 E4.89487
G1 X127.623 Y114.124 E4.90519
G1 X127.429 Y114.393 E4.91622
G1 X126.859 Y115.116 E4.94684
G1 X126.444 Y115.57 E4.9673
G1 X126.068 Y115.958 E4.98527
G1 X125.851 Y116.175 E4.99548
G1 X125.622 Y116.398 E5.00611
G1 X124.935 Y117.011 E5.03673
G1 X124.449 Y117.386 E5.05715
G1 X124.009 Y117.705 E5.07523
G1 X123.749 Y117.887 E5.08578
G1 X123.48 Y118.07 E5.0966
G1 X122.697 Y118.555 E5.12724
G1 X122.156 Y118.837 E5.14753
G1 X121.669 Y119.074 E5.16554
G1 X121.362 Y119.218 E5.17682
G1 X121.056 Y119.355 E5.18797
G1 X120.201 Y119.694 E5.21856
G1 X119.632 Y119.874 E5.23841
G1 X119.141 Y120.014 E5.25539
G1 X118.868 Y120.087 E5.26479
G1 X118.525 Y120.175 E5.27657
G1 X117.624 Y120.365 E5.3072
G1 X116.976 Y120.452 E5.32894
G1 X116.432 Y120.508 E5.34713
G1 X116.135 Y120.535 E5.35705
G1 X115.813 Y120.559 E5.36779
G1 X114.893 Y120.587 E5.3984
G1 X114.267 Y120.561 E5.41924
G1 X113.723 Y120.522 E5.43738
G1 X113.423 Y120.496 E5.4474
G1 X113.104 Y120.464 E5.45806
G1 X112.193 Y120.332 E5.48868
G1 X111.582 Y120.198 E5.50948
G1 X111.024 Y120.058 E5.52862
G1 X110.747 Y119.985 E5.53814
G1 X110.454 Y119.903 E5.54826
G1 X109.579 Y119.616 E5.57889
G1 X108.962 Y119.362 E5.60108
G1 X108.493 Y119.151 E5.61819
G1 X108.264 Y119.045 E5.62658
G1 X107.957 Y118.898 E5.6379
G1 X107.145 Y118.464 E5.66853
G1 X106.589 Y118.112 E5.69041
G1 X106.13 Y117.801 E5.70885
G1 X105.876 Y117.623 E5.71917
G1 X105.607 Y117.429 E5.7302
G1 X104.884 Y116.859 E5.76082
G1 X104.429 Y116.443 E5.78133
G1 X104.036 Y116.062 E5.79953
G1 X103.818 Y115.844 E5.80979
G1 X103.6 Y115.62 E5.82018
G1 X102.987 Y114.933 E5.85081
G1 X102.614 Y114.449 E5.87113
G1 X102.295 Y114.009 E5.88921
G1 X102.113 Y113.749 E5.89976
G1 X101.93 Y113.48 E5.91058
G1 X101.445 Y112.697 E5.94122
G1 X101.167 Y112.165 E5.96118
G1 X100.928 Y111.675 E5.97931
G1 X100.778 Y111.354 E5.9911
G1 X100.643 Y111.052 E6.0021
G1 X100.304 Y110.196 E6.03272
G1 X100.125 Y109.627 E6.05256
G1 X99.985 Y109.135 E6.06958
G1 X99.913 Y108.868 E6.07877
G1 X99.825 Y108.525 E6.09055
G1 X99.635 Y107.624 E6.12118
G1 X99.548 Y106.976 E6.14292
G1 X99.491 Y106.422 E6.16145
G1 X99.464 Y106.121 E6.1715
G1 X99.441 Y105.811 E6.18184
G1 X99.413 Y104.891 E6.21245
G1 X99.438 Y104.283 E6.23269
G1 X99.477 Y103.729 E6.25116
G1 X99.507 Y103.388 E6.26255
G1 X99.539 Y103.077 E6.27295
G1 X99.673 Y102.166 E6.30357
G1 X99.805 Y101.57 E6.32388
G1 X99.947 Y101.007 E6.34319
G1 X100.021 Y100.729 E6.35276
G1 X100.102 Y100.441 E6.36271
G1 X100.389 Y99.566 E6.39334
G1 X100.628 Y98.987 E6.41417
G1 X100.838 Y98.517 E6.43129
G1 X100.968 Y98.238 E6.44153
G1 X101.116 Y97.931 E6.45286
G1 X101.551 Y97.12 E6.48347
G1 X101.886 Y96.592 E6.50427
G1 X102.196 Y96.134 E6.52267
G1 X102.377 Y95.876 E6.53315
G1 X102.571 Y95.607 E6.54418
G1 X103.141 Y94.884 E6.5748
G1 X103.56 Y94.426 E6.59545
G0 F6000 X103.847 Y94.704
G1 F1200 X104.238 Y94.301 E6.61412
G1 X104.45 Y94.09 E6.62407
G1 X104.664 Y93.882 E6.634
G1 X105.339 Y93.282 E6.66403
G1 X105.786 Y92.938 E6.68279
G1 X106.226 Y92.619 E6.70087
G1 X106.476 Y92.444 E6.71102
G1 X106.745 Y92.261 E6.72184
G1 X107.513 Y91.786 E6.75188
G1 X108.019 Y91.522 E6.77086
G1 X108.506 Y91.285 E6.78887
G1 X108.79 Y91.153 E6.79929
G1 X109.095 Y91.016 E6.81041
G1 X109.934 Y90.682 E6.84044
G1 X110.482 Y90.509 E6.85956
G1 X110.974 Y90.369 E6.87657
G1 X111.231 Y90.3 E6.88542
G1 X111.574 Y90.212 E6.8972
G1 X112.458 Y90.026 E6.92725
G1 X113.065 Y89.946 E6.94761
G1 X113.609 Y89.89 E6.9658
G1 X113.895 Y89.864 E6.97535
G1 X114.217 Y89.84 E6.98609
G1 X115.12 Y89.813 E7.01614
G1 X115.704 Y89.838 E7.03558
G1 X116.248 Y89.877 E7.05372
G1 X116.537 Y89.902 E7.06337
G1 X116.856 Y89.934 E7.07403
G1 X117.75 Y90.064 E7.10408
G1 X118.32 Y90.19 E7.12349
G1 X118.878 Y90.33 E7.14263
G1 X119.145 Y90.4 E7.15181
G1 X119.438 Y90.482 E7.16193
G1 X120.296 Y90.764 E7.19197
G1 X120.874 Y91.003 E7.21277
G1 X121.343 Y91.214 E7.22987
G1 X121.563 Y91.316 E7.23794
G1 X121.87 Y91.463 E7.24926
G1 X122.667 Y91.889 E7.27932
G1 X123.186 Y92.219 E7.29977
G1 X123.645 Y92.53 E7.31821
G1 X123.89 Y92.701 E7.32815
G1 X124.159 Y92.895 E7.33918
G1 X124.868 Y93.455 E7.36923
G1 X125.293 Y93.845 E7.38842
G1 X125.686 Y94.226 E7.40662
G1 X125.896 Y94.435 E7.41648
G1 X126.114 Y94.659 E7.42687
G1 X126.714 Y95.334 E7.45691
G1 X127.062 Y95.786 E7.47588
G1 X127.381 Y96.226 E7.49396
G1 X127.556 Y96.476 E7.50411
G1 X127.739 Y96.745 E7.51493
G1 X128.214 Y97.513 E7.54497
G1 X128.478 Y98.019 E7.56395
G1 X128.715 Y98.506 E7.58196
G1 X128.847 Y98.79 E7.59238
G1 X128.984 Y99.095 E7.6035
G1 X129.318 Y99.934 E7.63353
G1 X129.489 Y100.477 E7.65247
G1 X129.625 Y100.954 E7.66897
G1 X129.695 Y101.212 E7.67786
G1 X129.787 Y101.57 E7.69015
G1 X129.973 Y102.454 E7.7202
G1 X130.054 Y103.065 E7.7407
G1 X130.11 Y103.609 E7.75889
G1 X130.135 Y103.89 E7.76827
G1 X130.159 Y104.21 E7.77894
G1 X130.187 Y105.113 E7.80899
G1 X130.163 Y105.687 E7.8281
G1 X130.126 Y106.214 E7.84567
G1 X130.1 Y106.521 E7.85592
G1 X130.066 Y106.859 E7.86722
G1 X129.936 Y107.753 E7.89726
G1 X129.81 Y108.32 E7.91658
G1 X129.67 Y108.878 E7.93572
G1 X129.597 Y109.154 E7.94521
G1 X129.515 Y109.446 E7.9553
G1 X129.233 Y110.304 E7.98534
G1 X129.004 Y110.857 E8.00525
G1 X128.798 Y111.317 E8.02201
G1 X128.686 Y111.558 E8.03085
G1 X128.534 Y111.875 E8.04254
G1 X128.108 Y112.671 E8.07257
G1 X127.781 Y113.186 E8.09286
G1 X127.47 Y113.645 E8.1113
G1 X127.299 Y113.89 E8.12124
G1 X127.105 Y114.159 E8.13227
G1 X126.545 Y114.868 E8.16232
G1 X126.157 Y115.291 E8.18141
G1 X125.781 Y115.679 E8.19938
G1 X125.572 Y115.889 E8.20923
G1 X125.343 Y116.112 E8.21987
G1 X124.669 Y116.712 E8.24988
G1 X124.214 Y117.062 E8.26897
G1 X123.774 Y117.381 E8.28705
G1 X123.524 Y117.556 E8.2972
G1 X123.255 Y117.739 E8.30802
G1 X122.487 Y118.214 E8.33805
G1 X121.981 Y118.478 E8.35704
G1 X121.494 Y118.715 E8.37505
G1 X121.199 Y118.853 E8.38588
G1 X120.893 Y118.99 E8.39703
G1 X120.053 Y119.322 E8.42707
G1 X119.522 Y119.489 E8.44559
G1 X119.031 Y119.629 E8.46257
G1 X118.769 Y119.7 E8.4716
G1 X118.426 Y119.788 E8.48338
G1 X117.542 Y119.974 E8.51342
G1 X116.935 Y120.054 E8.53379
G1 X116.391 Y120.11 E8.55197
G1 X116.105 Y120.136 E8.56153
G1 X115.783 Y120.16 E8.57227
G1 X114.88 Y120.187 E8.60231
G1 X114.296 Y120.162 E8.62175
G1 X113.752 Y120.123 E8.63989
G1 X113.463 Y120.098 E8.64954
G1 X113.144 Y120.066 E8.66021
G1 X112.25 Y119.936 E8.69025
G1 X111.68 Y119.81 E8.70967
G1 X111.122 Y119.67 E8.7288
G1 X110.855 Y119.6 E8.73798
G1 X110.562 Y119.518 E8.7481
G1 X109.704 Y119.236 E8.77814
G1 X109.126 Y118.997 E8.79895
G1 X108.657 Y118.786 E8.81605
G1 X108.437 Y118.684 E8.82412
G1 X108.13 Y118.537 E8.83544
G1 X107.333 Y118.111 E8.86549
G1 X106.814 Y117.781 E8.88595
G1 X106.355 Y117.47 E8.90439
G1 X106.11 Y117.299 E8.91433
G1 X105.841 Y117.105 E8.92536
G1 X105.132 Y116.545 E8.95541
G1 X104.707 Y116.155 E8.9746
G1 X104.314 Y115.774 E8.9928
G1 X104.104 Y115.565 E9.00265
G1 X103.886 Y115.341 E9.01305
G1 X103.286 Y114.666 E9.04309
G1 X102.938 Y114.214 E9.06206
G1 X102.619 Y113.774 E9.08014
G1 X102.444 Y113.524 E9.09029
G1 X102.261 Y113.255 E9.10111
G1 X101.786 Y112.487 E9.13114
G1 X101.526 Y111.99 E9.1498
G1 X101.287 Y111.5 E9.16793
G1 X101.143 Y111.191 E9.17927
G1 X101.008 Y110.889 E9.19027
G1 X100.676 Y110.049 E9.22031
G1 X100.509 Y109.518 E9.23883
G1 X100.369 Y109.026 E9.25584
G1 X100.3 Y108.769 E9.26469
G1 X100.212 Y108.426 E9.27647
G1 X100.026 Y107.542 E9.30652
G1 X99.946 Y106.935 E9.32688
G1 X99.889 Y106.381 E9.3454
G1 X99.863 Y106.092 E9.35505
G1 X99.84 Y105.782 E9.36539
G1 X99.813 Y104.879 E9.39544
G1 X99.837 Y104.311 E9.41435
G1 X99.876 Y103.757 E9.43282
