;FLAVOR:Marlin
;TIME:63
;Filament used: 0.0202582m
;Layer height: 0.2
;MINX:101.349
;MINY:91.245
;MINZ:0.2
;MAXX:128.637
;MAXY:118.761
;MAXZ:3.2
;Generated with Cura_SteamEngine master
M140 S50
M105
M190 S50
M104 S200
M105
M109 S200
M82 ;absolute extrusion mode
;posicionamiento absoluto

G90

;establecer el extrusor en modo absoluto

M82

;Apaga el fan de capa 

M107

;lleva el eje al inicio

G28

;Se mueve a esa posición

G1 X5 Y5 Z15 F3000

G1 Z15.0 F9000

;El eje E esta en cero

G92 E0

;extruye 10mm

G1 F200 E10

G92 E0

;Guardad esa velocidad

G1 F9000

;imprime en el LCD

M117 Imprimiendo...
G92 E0
G92 E0
G1 F2700 E-5
;LAYER_COUNT:16
;LAYER:0
M107
G0 F6000 X104.507 Y95.669 Z0.2
;TYPE:SKIRT
G1 F2700 E0
G1 F1200 X105.195 Y95.007 E0.03176
G1 X105.935 Y94.404 E0.06351
G1 X106.724 Y93.865 E0.09529
G1 X107.555 Y93.395 E0.12704
G1 X108.422 Y92.995 E0.1588
G1 X109.187 Y92.713 E0.18592
G1 X110.186 Y92.384 E0.2209
G1 X111.159 Y92.077 E0.25483
G1 X111.64 Y91.914 E0.27172
G1 X112.123 Y91.76 E0.28859
G1 X113.046 Y91.513 E0.32036
G1 X113.985 Y91.344 E0.3521
G1 X114.936 Y91.254 E0.38387
G1 X115.891 Y91.245 E0.41563
G1 X116.843 Y91.315 E0.44738
G1 X117.786 Y91.465 E0.47914
G1 X118.713 Y91.693 E0.51089
G1 X119.618 Y91.997 E0.54265
G1 X120.494 Y92.377 E0.57441
G1 X121.335 Y92.828 E0.60615
G1 X122.136 Y93.349 E0.63793
G1 X122.89 Y93.934 E0.66967
G1 X123.593 Y94.581 E0.70144
G1 X124.239 Y95.284 E0.7332
G1 X124.72 Y95.894 E0.75904
G1 X125.35 Y96.755 E0.79452
G1 X125.91 Y97.541 E0.82662
G1 X126.242 Y97.987 E0.84511
G1 X126.5 Y98.344 E0.85976
G1 X127.024 Y99.142 E0.89152
G1 X127.48 Y99.98 E0.92325
G1 X127.865 Y100.854 E0.95501
G1 X128.174 Y101.758 E0.98679
G1 X128.407 Y102.684 E1.01855
G1 X128.562 Y103.626 E1.0503
G1 X128.637 Y104.578 E1.08206
G1 X128.633 Y105.532 E1.11379
G1 X128.548 Y106.483 E1.14555
G1 X128.384 Y107.424 E1.17732
G1 X128.142 Y108.348 E1.20908
G1 X127.824 Y109.248 E1.24083
G1 X127.432 Y110.118 E1.27257
G1 X126.968 Y110.953 E1.30434
G1 X126.493 Y111.667 E1.33287
G1 X125.946 Y112.423 E1.3639
G1 X125.368 Y113.201 E1.39614
G1 X124.968 Y113.767 E1.41919
G1 X124.704 Y114.128 E1.43406
G1 X124.106 Y114.872 E1.46581
G1 X123.447 Y115.563 E1.49757
G1 X122.733 Y116.197 E1.52933
G1 X121.969 Y116.769 E1.56107
G1 X121.159 Y117.275 E1.59284
G1 X120.31 Y117.711 E1.62458
G1 X119.427 Y118.075 E1.65635
G1 X118.517 Y118.364 E1.68811
G1 X117.586 Y118.575 E1.71986
G1 X116.64 Y118.708 E1.75163
G1 X115.687 Y118.761 E1.78338
G1 X114.732 Y118.734 E1.81515
G1 X113.784 Y118.628 E1.84688
G1 X112.847 Y118.442 E1.87865
G1 X112.042 Y118.216 E1.90646
G1 X111.067 Y117.901 E1.94054
G1 X110.172 Y117.6 E1.97195
G1 X109.471 Y117.381 E1.99637
G1 X109.228 Y117.302 E2.00487
G1 X108.334 Y116.97 E2.03659
G1 X107.47 Y116.563 E2.06836
G1 X106.643 Y116.085 E2.10013
G1 X105.859 Y115.54 E2.13188
G1 X105.123 Y114.932 E2.16364
G1 X104.441 Y114.263 E2.19541
G1 X103.818 Y113.541 E2.22713
G1 X103.257 Y112.768 E2.2589
G1 X102.762 Y111.951 E2.29067
G1 X102.338 Y111.096 E2.32241
G1 X101.986 Y110.208 E2.35418
G1 X101.711 Y109.294 E2.38593
G1 X101.512 Y108.36 E2.41769
G1 X101.393 Y107.413 E2.44943
G1 X101.353 Y106.513 E2.4794
G1 X101.349 Y105.636 E2.50857
G1 X101.36 Y104.487 E2.54678
G1 X101.352 Y103.695 E2.57313
G1 X101.354 Y103.448 E2.58134
G1 X101.402 Y102.494 E2.61311
G1 X101.529 Y101.548 E2.64486
G1 X101.735 Y100.616 E2.67661
G1 X102.019 Y99.704 E2.70838
G1 X102.377 Y98.819 E2.74013
G1 X102.809 Y97.967 E2.7719
G1 X103.31 Y97.155 E2.80364
G1 X103.878 Y96.387 E2.83541
G1 X104.507 Y95.669 E2.86715
G0 F6000 X104.901 Y95.838
G1 F1200 X105.585 Y95.197 E2.89833
G1 X106.322 Y94.616 E2.92955
G1 X107.106 Y94.101 E2.96075
G1 X107.93 Y93.654 E2.99192
G1 X108.79 Y93.279 E3.02313
G1 X109.312 Y93.092 E3.04157
G1 X110.306 Y92.766 E3.07636
G1 X111.266 Y92.463 E3.10985
G1 X111.768 Y92.293 E3.12747
G1 X112.013 Y92.213 E3.13605
G1 X112.243 Y92.141 E3.14406
G1 X113.149 Y91.9 E3.17524
G1 X114.072 Y91.736 E3.20642
G1 X115.006 Y91.651 E3.23762
G1 X115.944 Y91.647 E3.26882
G1 X116.879 Y91.722 E3.30001
G1 X117.804 Y91.877 E3.33121
G1 X118.713 Y92.11 E3.36242
G1 X119.598 Y92.419 E3.3936
G1 X120.454 Y92.803 E3.4248
G1 X121.274 Y93.258 E3.45599
G1 X122.052 Y93.782 E3.48719
G1 X122.783 Y94.37 E3.51839
G1 X123.461 Y95.018 E3.54959
G1 X124.081 Y95.721 E3.58076
G1 X124.397 Y96.131 E3.59798
G1 X125.024 Y96.987 E3.63327
G1 X125.588 Y97.779 E3.66561
G1 X126.029 Y98.374 E3.69024
G1 X126.175 Y98.577 E3.69856
G1 X126.69 Y99.361 E3.72976
G1 X127.136 Y100.186 E3.76095
G1 X127.51 Y101.046 E3.79214
G1 X127.809 Y101.935 E3.82334
G1 X128.032 Y102.846 E3.85453
G1 X128.176 Y103.773 E3.88573
G1 X128.241 Y104.709 E3.91694
G1 X128.226 Y105.646 E3.94811
G1 X128.131 Y106.579 E3.9793
G1 X127.957 Y107.501 E4.01051
G1 X127.705 Y108.404 E4.04169
G1 X127.377 Y109.283 E4.0729
G1 X126.975 Y110.13 E4.10408
G1 X126.503 Y110.941 E4.13529
G1 X126.168 Y111.433 E4.15509
G1 X125.625 Y112.184 E4.18591
G1 X125.04 Y112.972 E4.21855
G1 X124.641 Y113.536 E4.24153
G1 X124.382 Y113.891 E4.25614
G1 X123.794 Y114.621 E4.28732
G1 X123.145 Y115.299 E4.31854
G1 X122.442 Y115.919 E4.34971
G1 X121.688 Y116.476 E4.38089
G1 X120.889 Y116.968 E4.4121
G1 X120.051 Y117.389 E4.44329
G1 X119.181 Y117.738 E4.47447
G1 X118.283 Y118.012 E4.5057
G1 X117.366 Y118.207 E4.53688
G1 X116.436 Y118.325 E4.56806
G1 X115.499 Y118.362 E4.59925
G1 X114.562 Y118.319 E4.63045
G1 X113.632 Y118.197 E4.66164
G1 X112.716 Y117.996 E4.69283
G1 X112.164 Y117.835 E4.71196
G1 X111.195 Y117.522 E4.74583
G1 X110.292 Y117.219 E4.77751
G1 X109.595 Y117.001 E4.8018
G1 X109.352 Y116.922 E4.8103
G1 X108.473 Y116.594 E4.8415
G1 X107.626 Y116.193 E4.87267
G1 X106.815 Y115.721 E4.90388
G1 X106.048 Y115.181 E4.93508
G1 X105.33 Y114.579 E4.96624
G1 X104.665 Y113.917 E4.99745
G1 X104.059 Y113.201 E5.02865
G1 X103.517 Y112.436 E5.05983
G1 X103.042 Y111.627 E5.09104
G1 X102.637 Y110.781 E5.12223
G1 X102.306 Y109.904 E5.15341
G1 X102.05 Y109.001 E5.18463
G1 X101.873 Y108.08 E5.21582
G1 X101.774 Y107.148 E5.24699
G1 X101.753 Y106.511 E5.26819
G1 X101.749 Y105.634 E5.29736
G1 X101.76 Y104.486 E5.33554
G1 X101.752 Y103.698 E5.36176
G1 X101.754 Y103.451 E5.36997
G1 X101.802 Y102.514 E5.40118
G1 X101.929 Y101.585 E5.43236
G1 X102.135 Y100.67 E5.46356
G1 X102.418 Y99.776 E5.49475
G1 X102.776 Y98.909 E5.52594
G1 X103.207 Y98.076 E5.55714
G1 X103.707 Y97.283 E5.58832
G1 X104.273 Y96.535 E5.61952
G1 X104.901 Y95.838 E5.65072
G0 F6000 X105.293 Y96.01
G1 F1200 X105.975 Y95.391 E5.68135
G1 X106.708 Y94.834 E5.71197
G1 X107.486 Y94.342 E5.74259
G1 X108.304 Y93.919 E5.77322
G1 X109.437 Y93.472 E5.81373
G1 X110.427 Y93.147 E5.84839
G1 X111.418 Y92.834 E5.88295
G1 X111.897 Y92.672 E5.89977
G1 X112.362 Y92.523 E5.91601
G1 X113.252 Y92.286 E5.94664
G1 X114.159 Y92.128 E5.97727
G1 X115.076 Y92.049 E6.00788
G1 X115.997 Y92.049 E6.03851
G1 X116.914 Y92.13 E6.06913
G1 X117.821 Y92.29 E6.09976
G1 X118.71 Y92.528 E6.13037
G1 X119.575 Y92.842 E6.16098
G1 X120.41 Y93.23 E6.1916
G1 X121.208 Y93.689 E6.22222
G1 X121.963 Y94.215 E6.25283
G1 X122.67 Y94.805 E6.28345
G1 X123.323 Y95.455 E6.3141
G1 X124.075 Y96.367 E6.35341
G1 X124.61 Y97.096 E6.38349
G1 X125.267 Y98.018 E6.42114
G1 X125.6 Y98.465 E6.43968
G1 X125.85 Y98.811 E6.45388
G1 X126.355 Y99.581 E6.48451
G1 X126.791 Y100.392 E6.51513
G1 X127.155 Y101.238 E6.54576
G1 X127.444 Y102.112 E6.57638
G1 X127.656 Y103.007 E6.60697
G1 X127.79 Y103.918 E6.6376
G1 X127.844 Y104.837 E6.66822
G1 X127.818 Y105.758 E6.69886
G1 X127.712 Y106.672 E6.72947
G1 X127.528 Y107.574 E6.76009
G1 X127.266 Y108.457 E6.79072
G1 X126.928 Y109.313 E6.82133
G1 X126.517 Y110.137 E6.85196
G1 X125.844 Y111.199 E6.89377
G1 X125.304 Y111.946 E6.92443
G1 X124.718 Y112.735 E6.95712
G1 X124.315 Y113.305 E6.98034
G1 X124.06 Y113.653 E6.99469
G1 X123.482 Y114.37 E7.02532
G1 X122.844 Y115.033 E7.05592
G1 X122.151 Y115.639 E7.08654
G1 X121.408 Y116.183 E7.11717
G1 X120.62 Y116.659 E7.14779
G1 X119.794 Y117.066 E7.17841
G1 X118.936 Y117.4 E7.20904
G1 X118.052 Y117.657 E7.23966
G1 X117.149 Y117.837 E7.27028
G1 X116.234 Y117.939 E7.3009
G1 X115.314 Y117.96 E7.33151
G1 X114.395 Y117.901 E7.36214
G1 X113.485 Y117.763 E7.39275
G1 X112.286 Y117.454 E7.43393
G1 X111.322 Y117.143 E7.46762
G1 X110.398 Y116.833 E7.50004
G1 X109.719 Y116.621 E7.5237
G1 X109.476 Y116.542 E7.5322
G1 X108.613 Y116.219 E7.56285
G1 X107.782 Y115.823 E7.59346
G1 X106.989 Y115.357 E7.62405
G1 X106.238 Y114.823 E7.6547
G1 X105.537 Y114.226 E7.68533
G1 X104.891 Y113.571 E7.71593
G1 X104.304 Y112.862 E7.74654
G1 X103.78 Y112.104 E7.77719
G1 X103.324 Y111.304 E7.80782
G1 X102.94 Y110.468 E7.83842
G1 X102.629 Y109.601 E7.86905
G1 X102.395 Y108.711 E7.89966
G1 X102.238 Y107.804 E7.93027
G1 X102.153 Y106.509 E7.97344
G1 X102.149 Y105.632 E8.00261
G1 X102.16 Y104.464 E8.04146
G1 X102.152 Y103.701 E8.06684
G1 X102.154 Y103.454 E8.07505
G1 X102.202 Y102.535 E8.10566
G1 X102.329 Y101.623 E8.13629
G1 X102.534 Y100.726 E8.16689
G1 X102.817 Y99.849 E8.19754
G1 X103.175 Y99.001 E8.22815
G1 X103.605 Y98.187 E8.25877
G1 X104.104 Y97.413 E8.2894
G1 X104.668 Y96.686 E8.32001
G1 X105.293 Y96.01 E8.35063
G0 F6000 X105.686 Y96.186
G1 F1200 X106.364 Y95.59 E8.38065
G1 X107.092 Y95.056 E8.41068
G1 X107.865 Y94.588 E8.44074
G1 X108.676 Y94.191 E8.47077
G1 X109.562 Y93.852 E8.50232
G1 X110.547 Y93.529 E8.5368
G1 X111.525 Y93.22 E8.57091
G1 X112.025 Y93.051 E8.58847
G1 X112.482 Y92.905 E8.60442
G1 X113.355 Y92.673 E8.63447
G1 X114.245 Y92.52 E8.6645
G1 X115.145 Y92.446 E8.69454
G1 X116.048 Y92.452 E8.72457
G1 X116.947 Y92.538 E8.75461
G1 X117.835 Y92.703 E8.78465
G1 X118.705 Y92.946 E8.81469
G1 X119.55 Y93.265 E8.84473
G1 X120.363 Y93.657 E8.87475
G1 X121.139 Y94.12 E8.90481
G1 X121.87 Y94.65 E8.93484
G1 X122.552 Y95.242 E8.96488
G1 X123.179 Y95.892 E8.99492
G1 X123.752 Y96.604 E9.02531
G1 X124.372 Y97.451 E9.06023
G1 X124.946 Y98.256 E9.09311
G1 X125.38 Y98.841 E9.11734
G1 X125.526 Y99.044 E9.12565
G1 X126.02 Y99.8 E9.15569
G1 X126.446 Y100.597 E9.18575
G1 X126.799 Y101.428 E9.21578
G1 X127.078 Y102.287 E9.24582
G1 X127.279 Y103.167 E9.27584
G1 X127.402 Y104.062 E9.30589
G1 X127.445 Y104.964 E9.33592
G1 X127.408 Y105.866 E9.36595
G1 X127.292 Y106.762 E9.396
G1 X127.096 Y107.644 E9.42605
G1 X126.824 Y108.505 E9.45608
G1 X126.476 Y109.338 E9.48611
G1 X126.056 Y110.138 E9.51616
G1 X125.519 Y110.965 E9.54895
G1 X124.983 Y111.707 E9.5794
G1 X124.39 Y112.506 E9.61249
G1 X123.988 Y113.074 E9.63564
G1 X123.738 Y113.416 E9.64973
G1 X123.171 Y114.118 E9.67974
G1 X122.543 Y114.768 E9.7098
G1 X121.861 Y115.359 E9.73982
G1 X121.128 Y115.888 E9.76988
G1 X120.352 Y116.35 E9.79992
G1 X119.538 Y116.741 E9.82996
G1 X118.693 Y117.059 E9.85999
G1 X117.823 Y117.301 E9.89002
G1 X116.935 Y117.465 E9.92005
G1 X116.036 Y117.549 E9.95009
G1 X115.133 Y117.554 E9.98012
G1 X114.233 Y117.479 E10.01016
G1 X113.343 Y117.325 E10.0402
G1 X112.409 Y117.073 E10.07238
G1 X111.45 Y116.764 E10.10589
G1 X110.531 Y116.455 E10.13813
G1 X109.842 Y116.24 E10.16214
G1 X109.599 Y116.161 E10.17064
G1 X108.754 Y115.844 E10.20066
G1 X107.939 Y115.454 E10.23071
G1 X107.163 Y114.993 E10.26073
G1 X106.43 Y114.465 E10.29077
G1 X105.747 Y113.874 E10.32081
G1 X105.119 Y113.225 E10.35085
G1 X104.55 Y112.524 E10.38088
G1 X104.046 Y111.774 E10.41094
G1 X103.61 Y110.983 E10.44098
G1 X103.246 Y110.157 E10.471
G1 X102.957 Y109.302 E10.50102
G1 X102.744 Y108.424 E10.53107
G1 X102.609 Y107.531 E10.5611
G1 X102.553 Y106.508 E10.59518
G1 X102.549 Y105.484 E10.62924
G1 X102.559 Y104.438 E10.66403
G1 X102.552 Y103.704 E10.68844
G1 X102.554 Y103.457 E10.69666
G1 X102.602 Y102.556 E10.72667
G1 X102.728 Y101.661 E10.75673
G1 X102.934 Y100.782 E10.78676
G1 X103.216 Y99.924 E10.8168
G1 X103.574 Y99.095 E10.84683
G1 X104.003 Y98.3 E10.87688
G1 X104.501 Y97.547 E10.9069
G1 X105.063 Y96.84 E10.93694
G1 X105.686 Y96.186 E10.96699
G1 F2700 E5.96699
;MESH:estrella-10mm.stl
G0 F6000 X114.137 Y103.287
G0 X113.807 Y104.306
G0 X114.933 Y105.527
;TYPE:WALL-INNER
G1 F2700 E10.96699
G1 F1200 X114.696 Y105.201 E10.98039
G1 X114.314 Y105.325 E10.99375
G1 X114.55 Y105 E10.99814
G1 X114.314 Y104.675 E11.0115
G1 X114.696 Y104.799 E11.01591
G1 X114.933 Y104.473 E11.02931
G1 X114.933 Y104.876 E11.03376
G1 X115.315 Y105 E11.04712
G1 X114.933 Y105.124 E11.05152
G1 X114.933 Y105.527 E11.05597
G0 F6000 X115.103 Y106.047
G0 X115.333 Y106.757
;TYPE:WALL-OUTER
G1 F1200 X114.543 Y105.671 E11.10063
G1 X113.267 Y106.086 E11.14526
G1 X114.056 Y105 E11.18991
G1 X113.267 Y103.914 E11.23455
G1 X114.543 Y104.329 E11.27918
G1 X115.333 Y103.243 E11.32385
G1 X115.333 Y104.585 E11.36848
G1 X116.61 Y105 E11.41314
G1 X115.333 Y105.415 E11.4578
G1 X115.333 Y106.757 E11.50244
G0 F6000 X115.007 Y105.956
;TYPE:SKIN
G1 F1200 X115.081 Y105.747 E11.50655
G1 X115.54 Y105.074 E11.52164
G1 X115.712 Y104.964 E11.52542
G0 F6000 X115.782 Y104.954
G0 X115.033 Y104.362
G0 X115.001 Y104.253
G1 F1200 X115.084 Y104.053 E11.53399
G0 F6000 X115.033 Y104.126
G0 X114.19 Y104.574
G0 X114.06 Y104.443
G1 F1200 X114.117 Y105.349 E11.54464
G1 X114.025 Y105.54 E11.54712
G0 F6000 X113.821 Y105.619
G1 F1200 X113.898 Y105.696 E11.54893
;MESH:NONMESH
G0 F300 X113.898 Y105.696 Z0.4
G0 F6000 X113.916 Y105.617
G0 X114.631 Y105.398
G0 X114.933 Y105.527
;TIME_ELAPSED:23.784871
;LAYER:1
M106 S85
;TYPE:WALL-INNER
;MESH:estrella-10mm.stl
G1 F600 X114.696 Y105.201 E11.56234
G1 X114.314 Y105.325 E11.5757
G1 X114.55 Y105 E11.58009
G1 X114.314 Y104.675 E11.59345
G1 X114.696 Y104.799 E11.59785
G1 X114.933 Y104.473 E11.61126
G1 X114.933 Y104.876 E11.61571
G1 X115.315 Y105 E11.62907
G1 X114.933 Y105.124 E11.63346
G1 X114.933 Y105.527 E11.63791
G0 F7500 X115.103 Y106.047
G0 X115.333 Y106.757
;TYPE:WALL-OUTER
G1 F600 X114.543 Y105.671 E11.68258
G1 X113.267 Y106.086 E11.72721
G1 X114.056 Y105 E11.77185
G1 X113.267 Y103.914 E11.8165
G1 X114.543 Y104.329 E11.86113
G1 X115.333 Y103.243 E11.90579
G1 X115.333 Y104.585 E11.95043
G1 X116.61 Y105 E11.99509
G1 X115.333 Y105.415 E12.03975
G1 X115.333 Y106.757 E12.08438
G0 F7500 X115.116 Y106.066
;TYPE:SKIN
G1 F600 X115.057 Y105.842 E12.08762
G1 X114.877 Y105.738 E12.09053
G1 X113.963 Y105.522 E12.10367
G0 F7500 X113.921 Y105.61
G0 X114.343 Y105
G0 X114.105 Y104.559
G0 X114.115 Y104.52
G1 F600 X113.949 Y104.404 E12.11194
G0 F7500 X113.986 Y104.395
G0 X114.925 Y104.311
G0 X115.031 Y104.17
G1 F600 X115.138 Y104.347 E12.11478
G1 X115.598 Y105.018 E12.12594
G0 F7500 X115.831 Y105.068
G1 F600 X115.935 Y104.964 E12.12838
;MESH:NONMESH
G0 F300 X115.935 Y104.964 Z0.6
G0 F7500 X115.865 Y104.98
G0 X115.101 Y105.247
G0 X114.933 Y105.527
;TIME_ELAPSED:26.422750
;LAYER:2
M106 S170
;TYPE:WALL-INNER
;MESH:estrella-10mm.stl
G1 F600 X114.696 Y105.201 E12.14179
G1 X114.314 Y105.325 E12.15515
G1 X114.55 Y105 E12.15954
G1 X114.314 Y104.675 E12.1729
G1 X114.696 Y104.799 E12.17731
G1 X114.933 Y104.473 E12.19071
G1 X114.933 Y104.876 E12.19516
G1 X115.315 Y105 E12.20852
G1 X114.933 Y105.124 E12.21291
G1 X114.933 Y105.527 E12.21736
G0 F9000 X115.103 Y106.047
G0 X115.333 Y106.757
;TYPE:WALL-OUTER
G1 F600 X114.543 Y105.671 E12.26203
G1 X113.267 Y106.086 E12.30666
G1 X114.056 Y105 E12.3513
G1 X113.267 Y103.914 E12.39595
G1 X114.543 Y104.329 E12.44058
G1 X115.333 Y103.243 E12.48524
G1 X115.333 Y104.585 E12.52988
G1 X116.61 Y105 E12.57454
G1 X115.333 Y105.415 E12.6192
G1 X115.333 Y106.757 E12.66383
G0 F9000 X115.007 Y105.956
;TYPE:SKIN
G1 F600 X115.081 Y105.747 E12.66794
G1 X115.54 Y105.074 E12.68304
G1 X115.712 Y104.964 E12.68682
G0 F9000 X115.782 Y104.954
G0 X115.033 Y104.362
G0 X115.001 Y104.253
G1 F600 X115.084 Y104.053 E12.69539
G0 F9000 X115.033 Y104.126
G0 X114.19 Y104.574
G0 X114.06 Y104.443
G1 F600 X114.117 Y105.349 E12.70603
G1 X114.025 Y105.54 E12.70852
G0 F9000 X113.821 Y105.619
G1 F600 X113.898 Y105.696 E12.71033
;MESH:NONMESH
G0 F300 X113.898 Y105.696 Z0.8
G0 F9000 X113.916 Y105.617
G0 X114.631 Y105.398
G0 X114.933 Y105.527
;TIME_ELAPSED:29.042591
;LAYER:3
M106 S255
;TYPE:WALL-INNER
;MESH:estrella-10mm.stl
G1 F600 X114.696 Y105.201 E12.72373
G1 X114.314 Y105.325 E12.73709
G1 X114.55 Y105 E12.74148
G1 X114.314 Y104.675 E12.75484
G1 X114.696 Y104.799 E12.75925
