;FLAVOR:Marlin
;TIME:2164
;Filament used: 0.910973m
;Layer height: 0.16
;MINX:18.622
;MINY:9.849
;MINZ:0.2
;MAXX:213.239
;MAXY:194.609
;MAXZ:3.2
;Generated with Cura_SteamEngine master
M140 S60
M105
M190 S60
M104 S190
M105
M109 S190
M82 ;absolute extrusion mode
;posicionamiento absoluto

G90

;establecer el extrusor en modo absoluto

M82

;Apaga el fan de capa 

M107

;lleva el eje al inicio

G28

;Se mueve a esa posición

G1 X5 Y5 Z15 F3000

G1 Z15.0 F9000

;El eje E esta en cero

G92 E0

;extruye 10mm

G1 F200 E10

G92 E0

;Guardad esa velocidad

G1 F9000

;imprime en el LCD

M117 Imprimiendo...
G92 E0
G92 E0
G1 F2700 E-5
;LAYER_COUNT:16
;LAYER:0
M107
G1 F300 Z0.4
G0 F6000 X22.272 Y17.058 Z0.4
;TYPE:SKIRT
G1 F300 Z0.2
G1 F2700 E0
G1 F1200 X22.672 Y16.566 E0.02193
G1 X22.848 Y16.362 E0.03125
G1 X23.208 Y15.965 E0.04979
G1 X23.365 Y15.8 E0.05767
G1 X23.669 Y15.493 E0.07261
G1 X23.774 Y15.391 E0.07768
G1 X24.178 Y15.018 E0.0967
G1 X24.45 Y14.779 E0.10922
G1 X24.958 Y14.359 E0.13202
G1 X25.129 Y14.226 E0.13952
G1 X25.605 Y13.876 E0.15995
G1 X25.9 Y13.671 E0.17238
G1 X26.575 Y13.237 E0.20014
G1 X26.891 Y13.05 E0.21284
G1 X27.614 Y12.658 E0.24129
G1 X27.909 Y12.512 E0.25267
G1 X28.613 Y12.194 E0.27939
G1 X28.986 Y12.041 E0.29334
G1 X29.374 Y11.89 E0.30774
G1 X30.267 Y11.596 E0.34026
G1 X30.78 Y11.451 E0.3587
G1 X31.568 Y11.259 E0.38676
G1 X32.008 Y11.177 E0.40224
G1 X32.512 Y11.093 E0.41991
G1 X33.494 Y10.974 E0.45413
G1 X33.826 Y10.949 E0.46564
G1 X34.507 Y10.919 E0.48922
G1 X34.811 Y10.915 E0.49974
G1 X35.377 Y10.922 E0.51932
G1 X35.586 Y10.93 E0.52655
G1 X36.037 Y10.957 E0.54218
G1 X36.276 Y10.976 E0.55048
G1 X36.824 Y11.033 E0.56953
G1 X36.97 Y11.052 E0.57463
G1 X37.358 Y11.11 E0.5882
G1 X37.616 Y11.153 E0.59724
G1 X37.9 Y11.204 E0.60722
G1 X38.06 Y11.235 E0.61286
G1 X38.713 Y11.382 E0.63602
G1 X39.004 Y11.457 E0.64641
G1 X39.545 Y11.611 E0.66587
G1 X39.949 Y11.742 E0.68056
G1 X40.176 Y11.82 E0.68886
G1 X40.628 Y11.986 E0.70552
G1 X40.856 Y12.077 E0.71401
G1 X41.172 Y12.207 E0.72583
G1 X43.585 Y13.162 E0.81559
G1 X45.956 Y14.024 E0.90286
G1 X48.368 Y14.824 E0.99076
G1 X50.754 Y15.541 E1.07694
G1 X53.189 Y16.199 E1.16419
G1 X55.627 Y16.784 E1.25092
G1 X58.141 Y17.312 E1.33977
G1 X60.557 Y17.748 E1.42469
G1 X63.071 Y18.129 E1.51265
G1 X65.555 Y18.435 E1.59922
G1 X68.093 Y18.674 E1.6874
G1 X70.585 Y18.838 E1.77378
G1 X73.072 Y18.931 E1.85987
G1 X75.632 Y18.955 E1.94843
G1 X78.119 Y18.907 E2.03447
G1 X80.676 Y18.786 E2.12302
G1 X83.154 Y18.598 E2.20898
G1 X85.643 Y18.338 E2.29554
G1 X88.142 Y18.005 E2.38275
G1 X90.668 Y17.596 E2.47126
G1 X93.103 Y17.131 E2.55701
G1 X95.548 Y16.591 E2.64362
G1 X97.994 Y15.98 E2.73083
G1 X100.462 Y15.287 E2.8195
G1 X102.837 Y14.547 E2.90555
G1 X105.207 Y13.733 E2.99223
G1 X107.597 Y12.838 E3.08051
G1 X109.924 Y11.89 E3.16743
G1 X111.775 Y11.081 E3.2373
G1 X112.373 Y10.813 E3.25997
G1 X113.245 Y10.466 E3.29243
G1 X114.142 Y10.194 E3.32485
G1 X115.06 Y10 E3.35731
G1 X115.991 Y9.885 E3.38976
G1 X116.894 Y9.849 E3.42102
G1 X117.669 Y9.851 E3.44783
G1 X119.017 Y9.872 E3.49446
G1 X120.046 Y9.854 E3.53006
G1 X120.234 Y9.859 E3.53656
G1 X121.581 Y9.85 E3.58316
G1 X122.518 Y9.884 E3.61559
G1 X123.449 Y9.998 E3.64804
G1 X124.367 Y10.191 E3.68048
G1 X125.265 Y10.461 E3.71292
G1 X126.101 Y10.79 E3.744
G1 X126.898 Y11.144 E3.77416
G1 X128.066 Y11.681 E3.81863
G1 X130.396 Y12.672 E3.90621
G1 X132.753 Y13.599 E3.99382
G1 X135.092 Y14.439 E4.07979
G1 X137.49 Y15.227 E4.1671
G1 X139.932 Y15.953 E4.25522
G1 X142.316 Y16.59 E4.34058
G1 X144.797 Y17.178 E4.42878
G1 X147.267 Y17.69 E4.51603
G1 X149.746 Y18.13 E4.60312
G1 X152.192 Y18.493 E4.68866
G1 X154.737 Y18.799 E4.77732
G1 X157.237 Y19.028 E4.86416
G1 X159.734 Y19.184 E4.9507
G1 X162.232 Y19.271 E5.03716
G1 X164.791 Y19.287 E5.12568
G1 X167.279 Y19.233 E5.21176
G1 X169.798 Y19.106 E5.29901
G1 X172.308 Y18.908 E5.3861
G1 X174.799 Y18.641 E5.47276
G1 X177.302 Y18.301 E5.56013
G1 X179.815 Y17.886 E5.64824
G1 X182.252 Y17.413 E5.73411
G1 X184.712 Y16.863 E5.8213
G1 X187.15 Y16.246 E5.90829
G1 X189.59 Y15.554 E5.99602
G1 X190.998 Y15.12 E6.04699
G1 X191.359 Y15.006 E6.06008
G1 X191.663 Y14.915 E6.07106
G1 X192.036 Y14.809 E6.08447
G1 X192.676 Y14.648 E6.1073
G1 X192.912 Y14.596 E6.11566
G1 X193.456 Y14.49 E6.13483
G1 X193.694 Y14.45 E6.14318
G1 X194.253 Y14.371 E6.1627
G1 X194.616 Y14.329 E6.17534
G1 X195.417 Y14.266 E6.20314
G1 X195.678 Y14.255 E6.21217
G1 X196.27 Y14.246 E6.23265
G1 X196.611 Y14.25 E6.24445
G1 X197.329 Y14.282 E6.26931
G1 X197.614 Y14.304 E6.2792
G1 X198.177 Y14.362 E6.29878
G1 X198.324 Y14.381 E6.3039
G1 X198.716 Y14.439 E6.31761
G1 X198.975 Y14.482 E6.32669
G1 X199.33 Y14.547 E6.33917
G1 X199.49 Y14.579 E6.34482
G1 X200.049 Y14.706 E6.36465
G1 X200.257 Y14.759 E6.37207
G1 X200.684 Y14.877 E6.3874
G1 X201.006 Y14.973 E6.39902
G1 X202.007 Y15.324 E6.43571
G1 X202.457 Y15.507 E6.45251
G1 X203.125 Y15.805 E6.47782
G1 X203.347 Y15.913 E6.48636
G1 X203.821 Y16.159 E6.50483
G1 X203.998 Y16.256 E6.51181
G1 X204.45 Y16.517 E6.52986
G1 X204.679 Y16.657 E6.53915
G1 X205.031 Y16.882 E6.5536
G1 X205.216 Y17.005 E6.56128
G1 X205.642 Y17.303 E6.57927
G1 X205.971 Y17.551 E6.59352
G1 X206.196 Y17.727 E6.6034
G1 X206.609 Y18.066 E6.62188
G1 X206.763 Y18.199 E6.62892
G1 X207.077 Y18.481 E6.64352
G1 X207.241 Y18.634 E6.65128
G1 X207.675 Y19.062 E6.67236
G1 X207.952 Y19.355 E6.68631
G1 X208.089 Y19.504 E6.69331
G1 X208.516 Y19.997 E6.71587
G1 X208.715 Y20.241 E6.72676
G1 X209.117 Y20.765 E6.74961
G1 X209.292 Y21.008 E6.75996
G1 X209.526 Y21.344 E6.77413
G1 X209.899 Y21.93 E6.79816
G1 X210.077 Y22.23 E6.81022
G1 X210.5 Y23.013 E6.84101
G1 X210.694 Y23.41 E6.85629
G1 X211.031 Y24.172 E6.88511
G1 X211.156 Y24.486 E6.8968
G1 X211.413 Y25.201 E6.92308
G1 X211.509 Y25.501 E6.93398
G1 X211.697 Y26.161 E6.95772
G1 X211.772 Y26.458 E6.96831
G1 X211.883 Y26.942 E6.98549
G1 X211.924 Y27.142 E6.99255
G1 X212.038 Y27.8 E7.01565
G1 X212.082 Y28.109 E7.02645
G1 X212.143 Y28.623 E7.04435
G1 X212.168 Y28.887 E7.05352
G1 X212.205 Y29.401 E7.07135
G1 X212.211 Y29.527 E7.07571
G1 X212.222 Y29.894 E7.08841
G1 X212.225 Y30.105 E7.09571
G1 X212.221 Y30.603 E7.11294
G1 X212.213 Y30.86 E7.12183
G1 X212.185 Y31.369 E7.13947
G1 X212.167 Y31.601 E7.14752
G1 X212.104 Y32.201 E7.16838
G1 X212.069 Y32.464 E7.17756
G1 X211.975 Y33.047 E7.19799
G1 X211.918 Y33.35 E7.20865
G1 X211.786 Y33.96 E7.23024
G1 X211.697 Y34.307 E7.24263
G1 X211.638 Y34.524 E7.25041
G1 X211.544 Y34.85 E7.26215
G1 X211.475 Y35.076 E7.27032
G1 X211.317 Y35.562 E7.288
G1 X211.267 Y35.711 E7.29343
G1 X210.61 Y37.607 E7.36284
G1 X209.85 Y40.021 E7.45039
G1 X209.173 Y42.406 E7.53614
G1 X208.55 Y44.859 E7.62369
G1 X207.993 Y47.346 E7.71185
G1 X207.518 Y49.798 E7.79824
G1 X207.107 Y52.286 E7.88547
G1 X206.768 Y54.77 E7.97219
G1 X206.501 Y57.259 E8.05878
G1 X206.301 Y59.789 E8.14656
G1 X206.173 Y62.308 E8.23381
G1 X206.118 Y64.796 E8.31989
G1 X206.133 Y67.32 E8.4072
G1 X206.221 Y69.875 E8.49563
G1 X206.374 Y72.326 E8.58058
G1 X206.608 Y74.882 E8.66936
G1 X206.906 Y77.372 E8.75611
G1 X207.273 Y79.841 E8.84245
G1 X207.715 Y82.327 E8.92979
G1 X208.225 Y84.793 E9.01689
G1 X208.799 Y87.225 E9.10333
G1 X209.455 Y89.683 E9.19133
G1 X210.169 Y92.09 E9.27817
G1 X210.949 Y94.466 E9.36468
G1 X212.238 Y97.977 E9.49405
G1 X212.488 Y98.619 E9.51788
G1 X212.791 Y99.506 E9.5503
G1 X213.018 Y100.416 E9.58275
G1 X213.165 Y101.342 E9.61518
G1 X213.239 Y102.517 E9.6559
G1 X213.239 Y102.841 E9.66711
G1 X213.215 Y105.2 E9.74871
G1 X213.228 Y105.918 E9.77355
G1 X213.238 Y107.312 E9.82177
G1 X213.204 Y108.249 E9.85421
G1 X213.091 Y109.18 E9.88665
G1 X212.9 Y110.098 E9.91908
G1 X212.639 Y110.97 E9.95057
G1 X212.458 Y111.493 E9.96971
G1 X211.817 Y113.27 E10.03505
G1 X211.025 Y115.684 E10.12293
G1 X210.313 Y118.078 E10.20933
G1 X209.664 Y120.51 E10.2964
G1 X209.075 Y122.989 E10.38453
G1 X208.571 Y125.433 E10.47085
G1 X208.125 Y127.941 E10.55897
G1 X207.762 Y130.379 E10.64423
G1 X207.456 Y132.928 E10.73303
G1 X207.231 Y135.4 E10.81889
G1 X207.073 Y137.897 E10.90544
G1 X206.986 Y140.444 E10.99359
G1 X206.97 Y142.976 E11.08118
G1 X207.024 Y145.455 E11.16695
G1 X207.152 Y147.986 E11.25461
G1 X207.351 Y150.511 E11.34222
G1 X207.616 Y152.988 E11.42839
G1 X207.958 Y155.492 E11.51581
G1 X208.363 Y157.948 E11.60191
G1 X208.848 Y160.449 E11.69003
G1 X209.391 Y162.879 E11.77616
G1 X210.02 Y165.361 E11.86473
G1 X210.69 Y167.721 E11.94959
G1 X211.902 Y171.481 E12.08624
G1 X212.194 Y172.327 E12.1172
G1 X212.364 Y172.861 E12.13658
G1 X212.483 Y173.294 E12.15211
G1 X212.564 Y173.612 E12.16346
G1 X212.669 Y174.062 E12.17945
G1 X212.794 Y174.712 E12.20234
G1 X212.839 Y174.992 E12.21215
G1 X212.928 Y175.687 E12.23639
G1 X212.963 Y176.052 E12.24907
G1 X213.008 Y176.768 E12.27389
G1 X213.016 Y177.031 E12.28299
G1 X213.02 Y177.473 E12.29828
G1 X213.018 Y177.676 E12.3053
G1 X212.999 Y178.236 E12.32469
G1 X212.981 Y178.532 E12.33494
G1 X212.911 Y179.272 E12.36065
G1 X212.871 Y179.582 E12.37147
G1 X212.792 Y180.092 E12.38932
G1 X212.744 Y180.363 E12.39884
G1 X212.587 Y181.104 E12.42504
G1 X212.517 Y181.385 E12.43506
G1 X212.364 Y181.935 E12.4548
G1 X212.285 Y182.194 E12.46417
G1 X212.148 Y182.614 E12.47945
G1 X212.076 Y182.82 E12.487
G1 X211.85 Y183.411 E12.50889
G1 X211.674 Y183.825 E12.52445
G1 X211.582 Y184.03 E12.53222
G1 X211.338 Y184.537 E12.55168
G1 X211.185 Y184.836 E12.5633
G1 X210.9 Y185.358 E12.58387
G1 X210.797 Y185.535 E12.59096
G1 X210.551 Y185.938 E12.60729
G1 X210.401 Y186.172 E12.6169
G1 X209.93 Y186.85 E12.64546
G1 X209.702 Y187.153 E12.65857
G1 X209.315 Y187.637 E12.68001
G1 X209.037 Y187.964 E12.69486
G1 X208.935 Y188.08 E12.7002
G1 X208.434 Y188.612 E12.72548
G1 X208.219 Y188.826 E12.73597
G1 X207.835 Y189.191 E12.7543
G1 X207.526 Y189.465 E12.76858
G1 X207.355 Y189.612 E12.77638
G1 X206.877 Y190.001 E12.7977
G1 X206.667 Y190.162 E12.80685
G1 X206.162 Y190.526 E12.82839
G1 X205.871 Y190.724 E12.84056
G1 X205.275 Y191.102 E12.86497
G1 X205.026 Y191.249 E12.87497
G1 X204.199 Y191.691 E12.90741
G1 X203.337 Y192.061 E12.93986
G1 X202.447 Y192.356 E12.97229
G1 X201.535 Y192.575 E13.00473
G1 X200.194 Y192.751 E13.05152
G1 X200.064 Y192.76 E13.05603
G1 X199.191 Y192.785 E13.08624
G1 X196.832 Y192.761 E13.16784
G1 X196.114 Y192.774 E13.19268
G1 X194.72 Y192.784 E13.2409
G1 X193.783 Y192.75 E13.27333
G1 X192.852 Y192.637 E13.30577
G1 X191.934 Y192.446 E13.33821
G1 X191.051 Y192.182 E13.37009
G1 X190.743 Y192.074 E13.38138
G1 X188.554 Y191.285 E13.46186
G1 X186.144 Y190.493 E13.54961
G1 X183.744 Y189.778 E13.63624
G1 X181.324 Y189.132 E13.72288
G1 X178.832 Y188.54 E13.81147
G1 X176.401 Y188.038 E13.89734
G1 X173.889 Y187.591 E13.98559
G1 X171.43 Y187.225 E14.07159
G1 X168.929 Y186.924 E14.15872
G1 X166.415 Y186.694 E14.24605
G1 X163.901 Y186.535 E14.33318
G1 X161.414 Y186.449 E14.41926
G1 X158.855 Y186.433 E14.50778
G1 X156.368 Y186.487 E14.59383
G1 X153.834 Y186.615 E14.68159
G1 X151.33 Y186.811 E14.76847
G1 X148.856 Y187.076 E14.85454
G1 X146.314 Y187.421 E14.94327
G1 X143.865 Y187.825 E15.02913
G1 X141.391 Y188.304 E15.1163
G1 X138.966 Y188.847 E15.20225
G1 X136.467 Y189.479 E15.29142
G1 X134.065 Y190.16 E15.37778
G1 X131.654 Y190.919 E15.46521
G1 X129.325 Y191.724 E15.55045
G1 X125.781 Y193.088 E15.68181
G1 X124.573 Y193.58 E15.72692
G1 X124.524 Y193.599 E15.72874
G1 X123.539 Y193.928 E15.76466
G1 X123.026 Y194.073 E15.7831
G1 X122.238 Y194.265 E15.81116
G1 X121.798 Y194.347 E15.82664
G1 X121.294 Y194.431 E15.84431
G1 X120.312 Y194.55 E15.87853
G1 X119.98 Y194.575 E15.89005
G1 X119.418 Y194.603 E15.90951
G1 X119.168 Y194.609 E15.91816
G1 X118.433 Y194.602 E15.94359
G1 X118.106 Y194.588 E15.95491
G1 X117.46 Y194.541 E15.97731
G1 X117.166 Y194.511 E15.98753
G1 X116.516 Y194.425 E16.01021
G1 X116.221 Y194.377 E16.02055
G1 X115.609 Y194.26 E16.04211
G1 X115.302 Y194.192 E16.05298
G1 X114.601 Y194.012 E16.07802
G1 X114.337 Y193.935 E16.08753
G1 X113.684 Y193.722 E16.11129
G1 X113.332 Y193.595 E16.12423
G1 X112.619 Y193.309 E16.15081
G1 X111.884 Y192.984 E16.1786
G1 X109.463 Y191.951 E16.26965
G1 X107.106 Y191.022 E16.35729
G1 X104.755 Y190.175 E16.44373
G1 X102.355 Y189.385 E16.53112
G1 X99.945 Y188.666 E16.61812
G1 X97.547 Y188.024 E16.70399
G1 X95.066 Y187.433 E16.79221
G1 X92.563 Y186.911 E16.88065
G1 X90.156 Y186.482 E16.96522
G1 X87.642 Y186.106 E17.05315
G1 X85.114 Y185.8 E17.14123
G1 X82.633 Y185.571 E17.22742
G1 X80.134 Y185.411 E17.31404
G1 X77.622 Y185.322 E17.40098
G1 X75.096 Y185.303 E17.48836
G1 X72.567 Y185.357 E17.57586
G1 X70.062 Y185.48 E17.66261
G1 X67.526 Y185.678 E17.7506
G1 X65.046 Y185.942 E17.83687
G1 X62.568 Y186.276 E17.92336
G1 X60.078 Y186.684 E18.01064
G1 X57.59 Y187.165 E18.0983
G1 X55.112 Y187.717 E18.18611
G1 X52.724 Y188.318 E18.27129
G1 X50.307 Y189.002 E18.35818
G1 X47.846 Y189.774 E18.4474
G1 X45.505 Y190.583 E18.53307
G1 X43.189 Y191.455 E18.61867
G1 X41.242 Y192.265 E18.69162
G1 X39.756 Y192.867 E18.74708
G1 X39.259 Y193.049 E18.76538
G1 X39.017 Y193.131 E18.77422
G1 X38.431 Y193.312 E18.79544
G1 X38.12 Y193.396 E18.80658
G1 X37.803 Y193.477 E18.8179
G1 X37.345 Y193.584 E18.83417
G1 X36.697 Y193.708 E18.85699
G1 X36.411 Y193.754 E18.86701
G1 X35.687 Y193.846 E18.89225
G1 X35.323 Y193.88 E18.9049
G1 X34.64 Y193.923 E18.92857
G1 X34.381 Y193.931 E18.93754
G1 X33.933 Y193.935 E18.95303
G1 X33.73 Y193.933 E18.96005
G1 X33.242 Y193.918 E18.97694
G1 X33.021 Y193.906 E18.9846
G1 X32.483 Y193.863 E19.00327
G1 X32.261 Y193.84 E19.01099
G1 X31.688 Y193.766 E19.03097
G1 X31.376 Y193.717 E19.0419
G1 X30.773 Y193.605 E19.06311
G1 X30.489 Y193.544 E19.07316
G1 X29.848 Y193.386 E19.096
G1 X29.55 Y193.303 E19.1067
G1 X28.931 Y193.111 E19.12911
G1 X28.794 Y193.064 E19.13412
G1 X28.459 Y192.943 E19.14645
G1 X28.193 Y192.842 E19.15629
G1 X27.782 Y192.676 E19.17162
G1 X27.639 Y192.615 E19.177
G1 X27.205 Y192.419 E19.19347
G1 X27.017 Y192.329 E19.20068
G1 X26.609 Y192.123 E19.21649
G1 X26.366 Y191.994 E19.22601
G1 X25.746 Y191.638 E19.25074
G1 X25.503 Y191.488 E19.26061
G1 X25.048 Y191.191 E19.27941
G1 X24.795 Y191.017 E19.29003
G1 X24.185 Y190.567 E19.31625
G1 X23.853 Y190.296 E19.33107
G1 X23.484 Y189.984 E19.34779
G1 X22.789 Y189.344 E19.38047
G1 X22.58 Y189.134 E19.39072
G1 X22.216 Y188.75 E19.40902
G1 X21.917 Y188.413 E19.4246
G1 X21.771 Y188.242 E19.43238
G1 X21.417 Y187.804 E19.45186
G1 X21.244 Y187.579 E19.46168
G1 X20.862 Y187.051 E19.48422
G1 X20.674 Y186.774 E19.4958
G1 X20.284 Y186.156 E19.52108
G1 X20.137 Y185.905 E19.53114
G1 X19.698 Y185.076 E19.56359
G1 X19.331 Y184.213 E19.59603
G1 X19.039 Y183.322 E19.62846
G1 X18.824 Y182.409 E19.66091
G1 X18.688 Y181.481 E19.69335
G1 X18.641 Y180.866 E19.71468
G1 X18.633 Y180.697 E19.72054
G1 X18.622 Y180.062 E19.74251
G1 X18.646 Y177.745 E19.82266
G1 X18.633 Y177.029 E19.84743
G1 X18.623 Y175.634 E19.89568
G1 X18.657 Y174.697 E19.92811
G1 X18.77 Y173.766 E19.96055
G1 X18.961 Y172.848 E19.99299
G1 X19.327 Y171.684 E20.0352
G1 X19.705 Y170.679 E20.07234
G1 X20.6 Y168.192 E20.16376
G1 X21.38 Y165.816 E20.25027
G1 X22.11 Y163.363 E20.3388
G1 X22.745 Y160.983 E20.424
G1 X23.332 Y158.505 E20.51209
G1 X23.844 Y156.034 E20.59938
G1 X24.286 Y153.541 E20.68696
G1 X24.648 Y151.103 E20.77221
G1 X24.951 Y148.58 E20.86011
G1 X25.183 Y146.042 E20.94827
G1 X25.336 Y143.591 E21.03321
G1 X25.424 Y141.035 E21.12168
G1 X25.44 Y138.509 E21.20906
G1 X25.385 Y136.014 E21.29538
G1 X25.259 Y133.508 E21.38218
G1 X25.06 Y130.995 E21.46937
G1 X24.788 Y128.455 E21.55774
G1 X24.451 Y125.98 E21.64414
G1 X24.048 Y123.535 E21.72985
G1 X23.561 Y121.032 E21.81806
G1 X23.012 Y118.576 E21.90511
G1 X22.398 Y116.152 E21.9916
G1 X21.706 Y113.716 E22.0792
G1 X20.847 Y111.002 E22.17767
G1 X20.557 Y110.134 E22.20932
G1 X20.451 Y109.801 E22.22141
G1 X20.323 Y109.373 E22.23686
G1 X20.165 Y108.787 E22.25786
G1 X20.092 Y108.468 E22.26918
G1 X20.036 Y108.207 E22.27841
G1 X19.924 Y107.604 E22.29963
G1 X19.858 Y107.149 E22.31553
G1 X19.817 Y106.818 E22.32707
G1 X19.774 Y106.403 E22.3415
G1 X19.761 Y106.251 E22.34678
G1 X19.731 Y105.774 E22.36331
G1 X19.72 Y105.511 E22.37241
G1 X19.711 Y104.883 E22.39414
